(.../pcb-gcode-3.6.2.4/pcb-gcode.ulp)
(Copyright 2005 - 2012 by John Johnson)
(See readme.txt for licensing terms.)
(This file generated from the board:)
(.../Trefferzonenmodul/Trefferzonenmodul.brd)
(Current profile is .../pcb-gcode-3.6.2.4/profiles/emc.pp  )
(This file generated 19.12.2014 23:39:31)
(Settings from pcb-machine.h)
(spindle on time = 0.0000)
(spindle speed = 20000.0000)
(tool change at 0.0000 0.0000 50.0000 )
(feed rate xy = F0.00  )
(feed rate z  = F508.00 )
(Z Axis Settings)
(  High     Up        Down     Drill)
(5.0000 	2.0000 	-0.0500 	-4.0000 )
(Settings from pcb-defaults.h)
(isolate min = 0.0240)
(isolate max = 0.5000)
(isolate step = 0.0800)
(Generated bottom outlines, bottom drill, )
(Unit of measure: mm)
( Tool|       Size       |  Min Sub |  Max Sub |   Count )
( T01 | 0.813mm 0.0320in | 0.0000in | 0.0000in |       0 )
( T02 | 1.016mm 0.0400in | 0.0000in | 0.0000in |       0 )
( T03 | 3.000mm 0.1181in | 0.0000in | 0.0000in |       0 )
(Metric Mode)
G21
(Absolute Coordinates)
G90
S20000
G00 Z5.0000 
G00 X0.0000 Y0.0000 
M03
G04 P0.000000
M05
G00 Z50.0000 
M06 T01 (0.8128 )
G00 Z2.0000 
M03
G04 P0.000000
G00 X-5.7150 Y22.8600 
G01 Z-4.0000 F508.00 
G00 Z2.0000 
G00 X-5.7150 Y25.4000 
G01 Z-4.0000 F508.00 
G00 Z2.0000 
G00 X-5.7150 Y27.9400 
G01 Z-4.0000 F508.00 
G00 Z2.0000 
G00 X-5.7150 Y30.4800 
G01 Z-4.0000 F508.00 
G00 Z2.0000 
G00 X-5.8343 Y43.9719 
G01 Z-4.0000 F508.00 
G00 Z2.0000 
G00 X-7.6020 Y45.7397 
G01 Z-4.0000 F508.00 
G00 Z2.0000 
G00 X-9.3698 Y47.5074 
G01 Z-4.0000 F508.00 
G00 Z2.0000 
G00 X-22.8600 Y47.6250 
G01 Z-4.0000 F508.00 
G00 Z2.0000 
G00 X-25.4000 Y47.6250 
G01 Z-4.0000 F508.00 
G00 Z2.0000 
G00 X-27.9400 Y47.6250 
G01 Z-4.0000 F508.00 
G00 Z2.0000 
G00 X-30.4800 Y47.6250 
G01 Z-4.0000 F508.00 
G00 Z2.0000 
G00 X-30.4800 Y39.3700 
G01 Z-4.0000 F508.00 
G00 Z2.0000 
G00 X-27.9400 Y39.3700 
G01 Z-4.0000 F508.00 
G00 Z2.0000 
G00 X-25.4000 Y39.3700 
G01 Z-4.0000 F508.00 
G00 Z2.0000 
G00 X-22.8600 Y39.3700 
G01 Z-4.0000 F508.00 
G00 Z2.0000 
G00 X-22.8600 Y33.0200 
G01 Z-4.0000 F508.00 
G00 Z2.0000 
G00 X-25.4000 Y33.0200 
G01 Z-4.0000 F508.00 
G00 Z2.0000 
G00 X-27.9400 Y33.0200 
G01 Z-4.0000 F508.00 
G00 Z2.0000 
G00 X-30.4800 Y33.0200 
G01 Z-4.0000 F508.00 
G00 Z2.0000 
G00 X-34.2900 Y31.1150 
G01 Z-4.0000 F508.00 
G00 Z2.0000 
G00 X-36.8300 Y31.1150 
G01 Z-4.0000 F508.00 
G00 Z2.0000 
G00 X-39.3700 Y31.1150 
G01 Z-4.0000 F508.00 
G00 Z2.0000 
G00 X-47.6250 Y30.4800 
G01 Z-4.0000 F508.00 
G00 Z2.0000 
G00 X-47.6250 Y27.9400 
G01 Z-4.0000 F508.00 
G00 Z2.0000 
G00 X-47.6250 Y25.4000 
G01 Z-4.0000 F508.00 
G00 Z2.0000 
G00 X-47.6250 Y22.8600 
G01 Z-4.0000 F508.00 
G00 Z2.0000 
G00 X-47.5057 Y9.3681 
G01 Z-4.0000 F508.00 
G00 Z2.0000 
G00 X-45.7380 Y7.6003 
G01 Z-4.0000 F508.00 
G00 Z2.0000 
G00 X-43.9702 Y5.8326 
G01 Z-4.0000 F508.00 
G00 Z2.0000 
G00 X-30.4800 Y5.7150 
G01 Z-4.0000 F508.00 
G00 Z2.0000 
G00 X-27.9400 Y5.7150 
G01 Z-4.0000 F508.00 
G00 Z2.0000 
G00 X-25.4000 Y5.7150 
G01 Z-4.0000 F508.00 
G00 Z2.0000 
G00 X-22.8600 Y5.7150 
G01 Z-4.0000 F508.00 
G00 Z2.0000 
G00 X-9.3681 Y5.8343 
G01 Z-4.0000 F508.00 
G00 Z2.0000 
G00 X-7.6003 Y7.6020 
G01 Z-4.0000 F508.00 
G00 Z2.0000 
G00 X-5.8326 Y9.3698 
G01 Z-4.0000 F508.00 
G00 Z2.0000 
G00 X-43.9719 Y47.5057 
G01 Z-4.0000 F508.00 
G00 Z2.0000 
G00 X-45.7397 Y45.7380 
G01 Z-4.0000 F508.00 
G00 Z2.0000 
G00 X-47.5074 Y43.9702 
G01 Z-4.0000 F508.00 
G00 Z2.0000 
M05
G00 Z50.0000 
G00 X0.0000 Y0.0000 
M06 T02 (1.0160 )
G00 Z2.0000 
M03
G04 P0.000000
G00 X-15.2400 Y27.3050 
G01 Z-4.0000 F508.00 
G00 Z2.0000 
G00 X-15.2400 Y29.8450 
G01 Z-4.0000 F508.00 
G00 Z2.0000 
G00 X-15.2400 Y32.3850 
G01 Z-4.0000 F508.00 
G00 Z2.0000 
G00 X-17.7800 Y32.3850 
G01 Z-4.0000 F508.00 
G00 Z2.0000 
G00 X-17.7800 Y29.8450 
G01 Z-4.0000 F508.00 
G00 Z2.0000 
G00 X-17.7800 Y27.3050 
G01 Z-4.0000 F508.00 
G00 Z2.0000 
M05
G00 Z50.0000 
G00 X0.0000 Y0.0000 
M06 T03 (3.0000 )
G00 Z2.0000 
M03
G04 P0.000000
G00 X-12.5300 Y40.8100 
G01 Z-4.0000 F508.00 
G00 Z2.0000 
G00 X-40.8100 Y12.5300 
G01 Z-4.0000 F508.00 
G00 Z2.0000 
T01 
G00 Z5.0000 
M05
M02
