(.../pcb-gcode-3.6.2.4/pcb-gcode.ulp)
(Copyright 2005 - 2012 by John Johnson)
(See readme.txt for licensing terms.)
(This file generated from the board:)
(.../Trefferzonenmodul/Trefferzonenmodul.brd)
(Current profile is .../pcb-gcode-3.6.2.4/profiles/emc.pp  )
(This file generated 19.12.2014 23:36:47)
(Settings from pcb-machine.h)
(spindle on time = 0.0000)
(  Tool Size)
(0.1500 )
(spindle speed = 30000.0000)
(tool change at 0.0000 0.0000 50.0000 )
(feed rate xy = F508.00 )
(feed rate z  = F254.00 )
(Z Axis Settings)
(  High     Up        Down     Drill)
(5.0000 	2.0000 	-0.0500 	-4.0000 )
(Settings from pcb-defaults.h)
(isolate min = 0.0240)
(isolate max = 0.5000)
(isolate step = 0.0800)
(Generated bottom outlines, bottom drill, )
(Unit of measure: mm)
(Metric Mode)
G21
(Absolute Coordinates)
G90
S30000
G00 Z5.0000 
G00 X0.0000 Y0.0000 
M03
G04 P0.000000
G00 Z2.0000 
G00 X-0.3418 Y9.6179 
G01 Z-0.0500 F254.00 
G01 X-0.4054 Y9.5543 F508.00 
G01 X-9.6179 Y0.3418 
G01 X-9.7010 Y0.3074 
G01 X-43.5817 Y0.3074 
G01 X-43.6266 Y0.3074 
G01 X-43.6682 Y0.3246 
G01 X-43.7097 Y0.3417 
G01 X-43.7406 Y0.3727 
G01 X-52.9345 Y9.5545 
G01 X-52.9647 Y9.5847 
G01 X-52.9981 Y9.6180 
G01 X-53.0146 Y9.6577 
G01 X-53.0326 Y9.7010 
G01 X-53.0326 Y9.7459 
G01 X-53.0326 Y9.7909 
G01 X-53.0326 Y43.5489 
G01 X-53.0326 Y43.5942 
G01 X-53.0326 Y43.6387 
G01 X-53.0148 Y43.6816 
G01 X-52.9982 Y43.7217 
G01 X-52.9648 Y43.7551 
G01 X-52.9346 Y43.7853 
G01 X-43.7414 Y52.9567 
G01 X-43.7099 Y52.9882 
G01 X-43.6682 Y53.0055 
G01 X-43.6269 Y53.0226 
G01 X-43.5816 Y53.0226 
G01 X-9.7458 Y53.0226 
G01 X-9.7009 Y53.0226 
G01 X-9.6619 Y53.0065 
G01 X-9.6179 Y52.9883 
G01 X-9.5881 Y52.9585 
G01 X-0.4054 Y43.7855 
G01 X-0.3776 Y43.7577 
G01 X-0.3419 Y43.7220 
G01 X-0.3251 Y43.6817 
G01 X-0.3074 Y43.6390 
G01 X-0.3074 Y43.5941 
G01 X-0.3074 Y43.5491 
G01 X-0.3074 Y9.7010 
G01 X-0.3418 Y9.6179 
G00 Z2.0000 
G00 X-3.5026 Y11.0187 
G01 Z-0.0500 F254.00 
G01 X-3.5026 Y11.1030 F508.00 
G01 X-3.5049 Y11.1098 
G01 X-3.5026 Y11.1478 
G01 X-3.5026 Y11.1857 
G01 X-3.4998 Y11.1924 
G01 X-3.4937 Y11.2926 
G01 X-3.5026 Y11.3142 
G01 X-3.5026 Y11.3214 
G01 X-3.5049 Y11.3282 
G01 X-3.5026 Y11.3661 
G01 X-3.5026 Y18.5565 
G01 X-3.4682 Y18.6396 
G01 X-3.4046 Y18.7031 
G01 X-1.2147 Y20.8931 
G01 X-1.1505 Y20.9197 
G01 X-0.9626 Y21.1075 
G01 X-0.9626 Y32.5123 
G01 X-1.2406 Y32.7904 
G01 X-2.1982 Y33.7479 
G01 X-2.2326 Y33.8310 
G01 X-2.2326 Y44.5773 
G01 X-2.4471 Y44.7918 
G01 X-5.9446 Y48.2893 
G01 X-5.9533 Y48.2980 
G01 X-6.0082 Y48.3529 
G01 X-6.2227 Y48.5674 
G01 X-8.2760 Y48.5674 
G01 X-8.3204 Y48.5674 
G01 X-8.3659 Y48.5674 
G01 X-8.4166 Y48.5884 
G01 X-8.4489 Y48.6018 
G01 X-8.4697 Y48.6226 
G01 X-8.7507 Y48.7390 
G01 X-9.0549 Y48.7390 
G01 X-9.3359 Y48.6226 
G01 X-9.5651 Y48.3935 
G01 X-9.6481 Y48.3590 
G01 X-9.7380 Y48.3590 
G01 X-9.8211 Y48.3935 
G01 X-9.8847 Y48.4570 
G01 X-13.1700 Y51.7424 
G01 X-32.5123 Y51.7424 
G01 X-33.7479 Y50.5068 
G01 X-33.8310 Y50.4724 
G01 X-45.2123 Y50.4724 
G01 X-45.4904 Y50.1943 
G01 X-48.5674 Y47.1173 
G01 X-48.5674 Y44.9741 
G01 X-48.6018 Y44.8911 
G01 X-48.6226 Y44.8703 
G01 X-48.7390 Y44.5892 
G01 X-48.7390 Y44.2851 
G01 X-48.6226 Y44.0040 
G01 X-47.4736 Y42.8550 
G01 X-47.1925 Y42.7386 
G01 X-46.8884 Y42.7386 
G01 X-46.8606 Y42.7501 
G01 X-46.7707 Y42.7501 
G01 X-46.7029 Y42.7220 
G01 X-46.6877 Y42.7157 
G01 X-46.6356 Y42.6637 
G01 X-46.6241 Y42.6521 
G01 X-46.0618 Y42.0898 
G01 X-46.0274 Y42.0068 
G01 X-46.0274 Y34.1627 
G01 X-45.7493 Y33.8846 
G01 X-39.2088 Y27.3441 
G01 X-39.1744 Y27.2611 
G01 X-39.1744 Y27.1711 
G01 X-39.2088 Y27.0881 
G01 X-39.2724 Y27.0245 
G01 X-39.3555 Y26.9901 
G01 X-39.7841 Y26.9901 
G01 X-39.8235 Y26.9795 
G01 X-39.8589 Y26.9591 
G01 X-39.8877 Y26.9303 
G01 X-39.9081 Y26.8949 
G01 X-39.9187 Y26.8555 
G01 X-39.9187 Y26.3880 
G01 X-39.8627 Y26.3880 
G01 X-39.8627 Y26.8548 
G01 X-39.8476 Y26.8912 
G01 X-39.8198 Y26.9190 
G01 X-39.7834 Y26.9341 
G01 X-38.5756 Y26.9341 
G01 X-38.5392 Y26.9190 
G01 X-38.5114 Y26.8912 
G01 X-38.4963 Y26.8548 
G01 X-38.4963 Y25.2152 
G01 X-38.5114 Y25.1788 
G01 X-38.5392 Y25.1510 
G01 X-38.5756 Y25.1359 
G01 X-38.8265 Y25.1359 
G01 X-38.8265 Y25.0799 
G01 X-38.5749 Y25.0799 
G01 X-38.5355 Y25.0905 
G01 X-38.5257 Y25.0961 
G01 X-38.5150 Y25.1068 
G01 X-38.4872 Y25.1183 
G01 X-38.4611 Y25.1334 
G01 X-38.4460 Y25.1354 
G01 X-38.4319 Y25.1412 
G01 X-38.4018 Y25.1412 
G01 X-38.3719 Y25.1452 
G01 X-38.3572 Y25.1412 
G01 X-38.3420 Y25.1412 
G01 X-38.3166 Y25.1307 
G01 X-37.2346 Y25.1307 
G01 X-37.1515 Y25.0963 
G01 X-37.1489 Y25.0936 
G01 X-36.8085 Y24.7533 
G01 X-36.7741 Y24.6703 
G01 X-36.7741 Y24.5923 
G01 X-36.7413 Y24.5923 
G01 X-36.6961 Y24.5923 
G01 X-36.6544 Y24.5750 
G01 X-36.6131 Y24.5579 
G01 X-36.5751 Y24.5199 
G01 X-36.5495 Y24.4943 
G01 X-36.5368 Y24.4816 
G01 X-36.5178 Y24.4357 
G01 X-36.5024 Y24.3985 
G01 X-36.5024 Y24.3533 
G01 X-36.5024 Y22.9227 
G01 X-36.5024 Y22.8779 
G01 X-36.5024 Y22.8328 
G01 X-36.5197 Y22.7910 
G01 X-36.5368 Y22.7497 
G01 X-36.5748 Y22.7117 
G01 X-36.6004 Y22.6861 
G01 X-36.6457 Y22.6674 
G01 X-36.6834 Y22.6517 
G01 X-36.7282 Y22.6517 
G01 X-36.7734 Y22.6517 
G01 X-36.8151 Y22.6690 
G01 X-36.8564 Y22.6861 
G01 X-36.8944 Y22.7241 
G01 X-36.9200 Y22.7497 
G01 X-36.9327 Y22.7624 
G01 X-36.9513 Y22.8073 
G01 X-36.9671 Y22.8455 
G01 X-36.9671 Y22.8897 
G01 X-36.9671 Y24.3213 
G01 X-36.9671 Y24.3660 
G01 X-36.9671 Y24.3993 
G01 X-38.3166 Y24.3993 
G01 X-38.3420 Y24.3888 
G01 X-38.3572 Y24.3888 
G01 X-38.3719 Y24.3848 
G01 X-38.4018 Y24.3888 
G01 X-38.4320 Y24.3888 
G01 X-38.4460 Y24.3946 
G01 X-38.4611 Y24.3966 
G01 X-38.4872 Y24.4116 
G01 X-38.5150 Y24.4232 
G01 X-38.5258 Y24.4339 
G01 X-38.5355 Y24.4395 
G01 X-38.5749 Y24.4501 
G01 X-38.8265 Y24.4501 
G01 X-38.8265 Y24.3941 
G01 X-38.5756 Y24.3941 
G01 X-38.5392 Y24.3790 
G01 X-38.5114 Y24.3512 
G01 X-38.4963 Y24.3148 
G01 X-38.4963 Y22.6752 
G01 X-38.5114 Y22.6388 
G01 X-38.5392 Y22.6110 
G01 X-38.5756 Y22.5959 
G01 X-38.8265 Y22.5959 
G01 X-38.8265 Y22.5399 
G01 X-38.5749 Y22.5399 
G01 X-38.5355 Y22.5505 
G01 X-38.5258 Y22.5561 
G01 X-38.5150 Y22.5668 
G01 X-38.4872 Y22.5783 
G01 X-38.4611 Y22.5934 
G01 X-38.4460 Y22.5954 
G01 X-38.4320 Y22.6012 
G01 X-38.4018 Y22.6012 
G01 X-38.3719 Y22.6052 
G01 X-38.3572 Y22.6012 
G01 X-38.3420 Y22.6012 
G01 X-38.3166 Y22.5907 
G01 X-37.7628 Y22.5907 
G01 X-37.7179 Y22.5908 
G01 X-37.6766 Y22.5738 
G01 X-37.6348 Y22.5566 
G01 X-37.6033 Y22.5252 
G01 X-37.5770 Y22.4990 
G01 X-37.5532 Y22.4892 
G01 X-37.5121 Y22.4723 
G01 X-37.4803 Y22.4405 
G01 X-37.4484 Y22.4088 
G01 X-37.2530 Y22.2133 
G01 X-37.2186 Y22.1303 
G01 X-37.2186 Y22.0403 
G01 X-37.2530 Y21.9573 
G01 X-37.3166 Y21.8937 
G01 X-37.3997 Y21.8593 
G01 X-38.3166 Y21.8593 
G01 X-38.3420 Y21.8488 
G01 X-38.3572 Y21.8488 
G01 X-38.3719 Y21.8448 
G01 X-38.4018 Y21.8488 
G01 X-38.4319 Y21.8488 
G01 X-38.4460 Y21.8546 
G01 X-38.4611 Y21.8566 
G01 X-38.4872 Y21.8716 
G01 X-38.5150 Y21.8832 
G01 X-38.5257 Y21.8939 
G01 X-38.5355 Y21.8995 
G01 X-38.5749 Y21.9101 
G01 X-38.8265 Y21.9101 
G01 X-38.8265 Y21.8541 
G01 X-38.5756 Y21.8541 
G01 X-38.5392 Y21.8390 
G01 X-38.5114 Y21.8112 
G01 X-38.4963 Y21.7748 
G01 X-38.4963 Y20.1352 
G01 X-38.5114 Y20.0988 
G01 X-38.5392 Y20.0710 
G01 X-38.5756 Y20.0559 
G01 X-38.8265 Y20.0559 
G01 X-38.8265 Y19.9999 
G01 X-38.5749 Y19.9999 
G01 X-38.5355 Y20.0105 
G01 X-38.5258 Y20.0161 
G01 X-38.5150 Y20.0268 
G01 X-38.4872 Y20.0383 
G01 X-38.4611 Y20.0534 
G01 X-38.4460 Y20.0554 
G01 X-38.4320 Y20.0612 
G01 X-38.4018 Y20.0612 
G01 X-38.3719 Y20.0652 
G01 X-38.3572 Y20.0612 
G01 X-38.3420 Y20.0612 
G01 X-38.3166 Y20.0507 
G01 X-37.0281 Y20.0507 
G01 X-36.9671 Y20.1117 
G01 X-36.9671 Y20.1567 
G01 X-36.9327 Y20.2398 
G01 X-36.8701 Y20.3024 
G01 X-36.7861 Y20.3378 
G01 X-36.6961 Y20.3378 
G01 X-36.6131 Y20.3034 
G01 X-35.6873 Y19.3776 
G01 X-35.5756 Y19.3776 
G01 X-35.5402 Y19.3629 
G01 X-35.4926 Y19.3432 
G01 X-35.4900 Y19.3406 
G01 X-35.3910 Y19.2416 
G01 X-35.3299 Y19.1806 
G01 X-35.3274 Y19.1780 
G01 X-35.3076 Y19.1303 
G01 X-35.2930 Y19.0950 
G01 X-35.2930 Y19.0050 
G01 X-35.3068 Y18.9716 
G01 X-35.3274 Y18.9220 
G01 X-35.3909 Y18.8584 
G01 X-35.4610 Y18.7884 
G01 X-35.4610 Y18.0416 
G01 X-35.4000 Y17.9806 
G01 X-33.2816 Y17.9806 
G01 X-33.2618 Y18.0005 
G01 X-33.1891 Y18.0732 
G01 X-33.1758 Y18.0787 
G01 X-33.1060 Y18.1076 
G01 X-32.5610 Y18.1076 
G01 X-32.4779 Y18.0732 
G01 X-32.4143 Y18.0096 
G01 X-29.9723 Y15.5676 
G01 X-24.4898 Y15.5676 
G01 X-24.4399 Y15.5709 
G01 X-24.4235 Y15.5676 
G01 X-24.0440 Y15.5676 
G01 X-23.9762 Y15.5395 
G01 X-23.9610 Y15.5332 
G01 X-23.8644 Y15.4366 
G01 X-23.8404 Y15.4182 
G01 X-23.8328 Y15.4051 
G01 X-23.8221 Y15.3943 
G01 X-23.8106 Y15.3665 
G01 X-23.7955 Y15.3404 
G01 X-23.7935 Y15.3253 
G01 X-23.7877 Y15.3113 
G01 X-23.7877 Y15.2811 
G01 X-23.7838 Y15.2512 
G01 X-23.7877 Y15.2365 
G01 X-23.7877 Y15.2213 
G01 X-23.7992 Y15.1935 
G01 X-23.8070 Y15.1644 
G01 X-23.8163 Y15.1523 
G01 X-23.8221 Y15.1383 
G01 X-23.8434 Y15.1170 
G01 X-23.8484 Y15.1104 
G01 X-21.7699 Y15.1104 
G01 X-21.7750 Y15.1170 
G01 X-21.7963 Y15.1383 
G01 X-21.8021 Y15.1523 
G01 X-21.8114 Y15.1644 
G01 X-21.8192 Y15.1935 
G01 X-21.8307 Y15.2214 
G01 X-21.8307 Y15.2365 
G01 X-21.8346 Y15.2512 
G01 X-21.8307 Y15.2811 
G01 X-21.8307 Y15.3113 
G01 X-21.8249 Y15.3253 
G01 X-21.8229 Y15.3404 
G01 X-21.8078 Y15.3665 
G01 X-21.7963 Y15.3943 
G01 X-21.7856 Y15.4051 
G01 X-21.7780 Y15.4182 
G01 X-21.7540 Y15.4366 
G01 X-21.6890 Y15.5016 
G01 X-21.6890 Y16.2484 
G01 X-21.7590 Y16.3184 
G01 X-21.8216 Y16.3810 
G01 X-21.8570 Y16.4650 
G01 X-21.8570 Y16.5550 
G01 X-21.8226 Y16.6380 
G01 X-21.6890 Y16.7716 
G01 X-21.6890 Y17.5184 
G01 X-21.7590 Y17.5884 
G01 X-21.8216 Y17.6510 
G01 X-21.8570 Y17.7350 
G01 X-21.8570 Y17.8250 
G01 X-21.8226 Y17.9080 
G01 X-21.6890 Y18.0416 
G01 X-21.6890 Y18.7884 
G01 X-21.7590 Y18.8584 
G01 X-21.8216 Y18.9210 
G01 X-21.8570 Y19.0050 
G01 X-21.8570 Y19.0950 
G01 X-21.8226 Y19.1780 
G01 X-21.6890 Y19.3116 
G01 X-21.6890 Y20.0584 
G01 X-21.7590 Y20.1284 
G01 X-21.8216 Y20.1910 
G01 X-21.8570 Y20.2750 
G01 X-21.8570 Y20.3650 
G01 X-21.8226 Y20.4480 
G01 X-21.6890 Y20.5816 
G01 X-21.6890 Y21.3284 
G01 X-21.7590 Y21.3984 
G01 X-21.8216 Y21.4610 
G01 X-21.8570 Y21.5450 
G01 X-21.8570 Y21.6350 
G01 X-21.8226 Y21.7180 
G01 X-21.6890 Y21.8516 
G01 X-21.6890 Y22.5984 
G01 X-21.7590 Y22.6684 
G01 X-21.8216 Y22.7310 
G01 X-21.8570 Y22.8150 
G01 X-21.8570 Y22.9050 
G01 X-21.8226 Y22.9880 
G01 X-21.6890 Y23.1216 
G01 X-21.6890 Y23.8684 
G01 X-21.7590 Y23.9384 
G01 X-21.8216 Y24.0010 
G01 X-21.8570 Y24.0850 
G01 X-21.8570 Y24.1750 
G01 X-21.8226 Y24.2580 
G01 X-21.6890 Y24.3916 
G01 X-21.6890 Y25.1116 
G01 X-21.6546 Y25.1946 
G01 X-21.5910 Y25.2582 
G01 X-21.5080 Y25.2926 
G01 X-21.2277 Y25.2926 
G01 X-21.0476 Y25.4727 
G01 X-21.0476 Y25.6840 
G01 X-21.0132 Y25.7670 
G01 X-20.9496 Y25.8306 
G01 X-20.8666 Y25.8650 
G01 X-20.6818 Y25.8650 
G01 X-20.6818 Y25.9210 
G01 X-20.9604 Y25.9210 
G01 X-20.9968 Y25.9361 
G01 X-21.0246 Y25.9639 
G01 X-21.0397 Y26.0003 
G01 X-21.0397 Y27.5397 
G01 X-21.0246 Y27.5761 
G01 X-20.9968 Y27.6039 
G01 X-20.9604 Y27.6190 
G01 X-19.6972 Y27.6190 
G01 X-19.6608 Y27.6039 
G01 X-19.6330 Y27.5761 
G01 X-19.6179 Y27.5397 
G01 X-19.6179 Y27.1230 
G01 X-19.5619 Y27.1230 
G01 X-19.5619 Y27.3616 
G01 X-19.5619 Y27.4516 
G01 X-19.5275 Y27.5346 
G01 X-19.4639 Y27.5982 
G01 X-19.3809 Y27.6326 
G01 X-18.8272 Y27.6326 
G01 X-18.7442 Y27.5982 
G01 X-18.6806 Y27.5346 
G01 X-18.6462 Y27.4516 
G01 X-18.6462 Y27.1327 
G01 X-18.5143 Y26.8143 
G01 X-18.2707 Y26.5707 
G01 X-17.9523 Y26.4388 
G01 X-17.6077 Y26.4388 
G01 X-17.2893 Y26.5707 
G01 X-17.0457 Y26.8143 
G01 X-16.9138 Y27.1327 
G01 X-16.9138 Y27.4773 
G01 X-17.0457 Y27.7957 
G01 X-17.1636 Y27.9136 
G01 X-17.1980 Y27.9966 
G01 X-17.1980 Y28.0866 
G01 X-17.1882 Y28.1102 
G01 X-17.1636 Y28.1696 
G01 X-17.1000 Y28.2332 
G01 X-17.0170 Y28.2676 
G01 X-16.6860 Y28.2676 
G01 X-16.6029 Y28.2332 
G01 X-16.5393 Y28.1696 
G01 X-16.2042 Y27.8344 
G01 X-16.1406 Y27.7709 
G01 X-16.1062 Y27.6878 
G01 X-16.1062 Y26.9462 
G01 X-15.5818 Y26.4218 
G01 X-15.5474 Y26.3388 
G01 X-15.5474 Y24.9410 
G01 X-15.5818 Y24.8579 
G01 X-15.6454 Y24.7943 
G01 X-18.0874 Y22.3523 
G01 X-18.0874 Y16.0510 
G01 X-18.1218 Y15.9679 
G01 X-18.1854 Y15.9043 
G01 X-20.4129 Y13.6768 
G01 X-20.4960 Y13.6424 
G01 X-21.1286 Y13.6424 
G01 X-21.1785 Y13.6391 
G01 X-21.1949 Y13.6424 
G01 X-24.4235 Y13.6424 
G01 X-24.4399 Y13.6391 
G01 X-24.4898 Y13.6424 
G01 X-32.5265 Y13.6424 
G01 X-32.6096 Y13.6768 
G01 X-32.6501 Y13.7173 
G01 X-35.1750 Y16.2422 
G01 X-35.1980 Y16.2653 
G01 X-35.2009 Y16.2682 
G01 X-35.2202 Y16.2874 
G01 X-36.3806 Y17.4478 
G01 X-36.4176 Y17.4848 
G01 X-36.4368 Y17.5040 
G01 X-37.9727 Y19.0399 
G01 X-40.1465 Y19.0399 
G01 X-40.2296 Y19.0743 
G01 X-40.2931 Y19.1379 
G01 X-40.9332 Y19.7779 
G01 X-40.9676 Y19.8610 
G01 X-40.9676 Y27.4323 
G01 X-41.2456 Y27.7104 
G01 X-47.2832 Y33.7479 
G01 X-47.3176 Y33.8310 
G01 X-47.3176 Y41.4023 
G01 X-47.4977 Y41.5824 
G01 X-51.5623 Y41.5824 
G01 X-51.7424 Y41.4023 
G01 X-51.7424 Y32.2577 
G01 X-51.5623 Y32.0776 
G01 X-47.4977 Y32.0776 
G01 X-47.3176 Y32.2577 
G01 X-47.3176 Y32.4122 
G01 X-47.2832 Y32.4953 
G01 X-47.2196 Y32.5589 
G01 X-47.1366 Y32.5933 
G01 X-47.0466 Y32.5933 
G01 X-46.9636 Y32.5589 
G01 X-46.9000 Y32.4953 
G01 X-41.6168 Y27.2121 
G01 X-41.5824 Y27.1290 
G01 X-41.5824 Y19.5577 
G01 X-40.6643 Y18.6396 
G01 X-40.4498 Y18.4251 
G01 X-38.2760 Y18.4251 
G01 X-38.1929 Y18.3907 
G01 X-38.1293 Y18.3271 
G01 X-33.0443 Y13.2421 
G01 X-32.8298 Y13.0276 
G01 X-20.1927 Y13.0276 
G01 X-17.6871 Y15.5332 
G01 X-17.4726 Y15.7477 
G01 X-17.4726 Y22.0490 
G01 X-17.4382 Y22.1321 
G01 X-17.3746 Y22.1956 
G01 X-15.1471 Y24.4232 
G01 X-14.9326 Y24.6377 
G01 X-14.9326 Y26.3388 
G01 X-14.8982 Y26.4218 
G01 X-14.3738 Y26.9462 
G01 X-14.3738 Y27.6878 
G01 X-14.3394 Y27.7709 
G01 X-13.8771 Y28.2332 
G01 X-13.6626 Y28.4477 
G01 X-13.6626 Y30.6073 
G01 X-14.2024 Y31.1472 
G01 X-14.5001 Y31.4449 
G01 X-14.5159 Y31.4606 
G01 X-14.5637 Y31.5084 
G01 X-14.5981 Y31.5915 
G01 X-14.5981 Y31.6814 
G01 X-14.5637 Y31.7645 
G01 X-14.5182 Y31.8100 
G01 X-14.5001 Y31.8280 
G01 X-14.3230 Y32.0052 
G01 X-14.3230 Y32.0320 
G01 X-14.3790 Y32.0320 
G01 X-14.3790 Y32.0284 
G01 X-14.8834 Y31.5240 
G01 X-15.5966 Y31.5240 
G01 X-16.1010 Y32.0284 
G01 X-16.1010 Y32.7416 
G01 X-15.5966 Y33.2460 
G01 X-15.5930 Y33.2460 
G01 X-15.5930 Y33.3020 
G01 X-15.6198 Y33.3020 
G01 X-15.8486 Y33.0732 
G01 X-15.9316 Y33.0388 
G01 X-16.0216 Y33.0388 
G01 X-16.1046 Y33.0732 
G01 X-16.1682 Y33.1368 
G01 X-16.2026 Y33.2199 
G01 X-16.2026 Y33.7823 
G01 X-16.6383 Y34.2180 
G01 X-16.6727 Y34.3011 
G01 X-16.6727 Y35.4223 
G01 X-16.6383 Y35.5054 
G01 X-16.5747 Y35.5690 
G01 X-16.4917 Y35.6034 
G01 X-16.4017 Y35.6034 
G01 X-16.3187 Y35.5690 
G01 X-16.2551 Y35.5054 
G01 X-11.9367 Y31.1870 
G01 X-11.9023 Y31.1039 
G01 X-11.9023 Y29.6868 
G01 X-11.8413 Y29.6258 
G01 X-11.6009 Y29.6258 
G01 X-11.5179 Y29.5914 
G01 X-11.4543 Y29.5278 
G01 X-11.4199 Y29.4448 
G01 X-11.4199 Y28.8067 
G01 X-11.4543 Y28.7237 
G01 X-11.5179 Y28.6601 
G01 X-11.6009 Y28.6257 
G01 X-11.9000 Y28.6257 
G01 X-13.1356 Y27.3901 
G01 X-13.3857 Y27.1400 
G01 X-13.3857 Y25.3804 
G01 X-13.4201 Y25.2974 
G01 X-13.4837 Y25.2338 
G01 X-13.5667 Y25.1994 
G01 X-13.8100 Y25.1994 
G01 X-13.8710 Y25.1384 
G01 X-13.8710 Y24.3916 
G01 X-13.7374 Y24.2580 
G01 X-13.7176 Y24.2103 
G01 X-13.7030 Y24.1749 
G01 X-13.7030 Y24.0850 
G01 X-13.7168 Y24.0516 
G01 X-13.7374 Y24.0020 
G01 X-13.8010 Y23.9384 
G01 X-13.9026 Y23.8368 
G01 X-13.9522 Y23.8162 
G01 X-13.9856 Y23.8024 
G01 X-14.0973 Y23.8024 
G01 X-15.9679 Y21.9318 
G01 X-16.1824 Y21.7173 
G01 X-16.1824 Y14.4635 
G01 X-16.2168 Y14.3804 
G01 X-16.2804 Y14.3168 
G01 X-18.1904 Y12.4068 
G01 X-18.2735 Y12.3724 
G01 X-28.4585 Y12.3724 
G01 X-30.1642 Y10.6667 
G01 X-30.2473 Y10.6323 
G01 X-31.3149 Y10.6323 
G01 X-31.3266 Y10.6275 
G01 X-31.3714 Y10.6275 
G01 X-31.4165 Y10.6274 
G01 X-31.4553 Y10.6435 
G01 X-31.4996 Y10.6618 
G01 X-31.5288 Y10.6911 
G01 X-31.5632 Y10.7254 
G01 X-38.6077 Y17.7699 
G01 X-40.7815 Y17.7699 
G01 X-40.8646 Y17.8043 
G01 X-40.9281 Y17.8679 
G01 X-42.2032 Y19.1429 
G01 X-42.2376 Y19.2260 
G01 X-42.2376 Y24.2573 
G01 X-42.4521 Y24.4718 
G01 X-42.5157 Y24.5354 
G01 X-43.5614 Y25.5811 
G01 X-43.5958 Y25.6642 
G01 X-43.5958 Y26.2989 
G01 X-43.6568 Y26.3599 
G01 X-45.2432 Y26.3599 
G01 X-45.3042 Y26.2989 
G01 X-45.3042 Y24.9887 
G01 X-45.2085 Y24.8930 
G01 X-45.1741 Y24.8100 
G01 X-45.1741 Y24.7200 
G01 X-45.1839 Y24.6964 
G01 X-45.2085 Y24.6370 
G01 X-45.2720 Y24.5734 
G01 X-45.3723 Y24.4731 
G01 X-45.4554 Y24.4387 
G01 X-45.5453 Y24.4387 
G01 X-45.6284 Y24.4731 
G01 X-45.6920 Y24.5367 
G01 X-46.1209 Y24.9657 
G01 X-46.1835 Y25.0283 
G01 X-46.2127 Y25.0974 
G01 X-46.2189 Y25.1123 
G01 X-46.2189 Y25.1568 
G01 X-46.2189 Y25.2022 
G01 X-46.2116 Y25.2200 
G01 X-46.2000 Y25.2479 
G01 X-46.2000 Y25.5521 
G01 X-46.3164 Y25.8331 
G01 X-46.5315 Y26.0482 
G01 X-46.8125 Y26.1646 
G01 X-48.4375 Y26.1646 
G01 X-48.7185 Y26.0482 
G01 X-48.9336 Y25.8331 
G01 X-49.0500 Y25.5521 
G01 X-49.0500 Y25.2479 
G01 X-48.9336 Y24.9669 
G01 X-48.7185 Y24.7518 
G01 X-48.4375 Y24.6354 
G01 X-46.8125 Y24.6354 
G01 X-46.8028 Y24.6394 
G01 X-46.7583 Y24.6394 
G01 X-46.7128 Y24.6394 
G01 X-46.6993 Y24.6338 
G01 X-46.6298 Y24.6050 
G01 X-46.5662 Y24.5415 
G01 X-46.0618 Y24.0371 
G01 X-45.8473 Y23.8226 
G01 X-45.4852 Y23.8226 
G01 X-45.4022 Y23.7882 
G01 X-45.3386 Y23.7246 
G01 X-45.3042 Y23.6416 
G01 X-45.3042 Y23.2311 
G01 X-45.2432 Y23.1701 
G01 X-43.6568 Y23.1701 
G01 X-43.5958 Y23.2311 
G01 X-43.5958 Y24.2454 
G01 X-43.5614 Y24.3285 
G01 X-43.4978 Y24.3921 
G01 X-43.4148 Y24.4265 
G01 X-43.3248 Y24.4265 
G01 X-43.2418 Y24.3921 
G01 X-43.1782 Y24.3285 
G01 X-42.8868 Y24.0371 
G01 X-42.8524 Y23.9540 
G01 X-42.8524 Y21.5628 
G01 X-42.8868 Y21.4797 
G01 X-42.9494 Y21.4171 
G01 X-43.0334 Y21.3817 
G01 X-43.1234 Y21.3817 
G01 X-43.2064 Y21.4161 
G01 X-43.5614 Y21.7711 
G01 X-43.5958 Y21.8542 
G01 X-43.5958 Y22.4889 
G01 X-43.6568 Y22.5499 
G01 X-45.2432 Y22.5499 
G01 X-45.3042 Y22.4889 
G01 X-45.3042 Y21.4746 
G01 X-45.3386 Y21.3915 
G01 X-45.4022 Y21.3279 
G01 X-45.4852 Y21.2935 
G01 X-45.5752 Y21.2935 
G01 X-45.6582 Y21.3279 
G01 X-45.7218 Y21.3915 
G01 X-46.4088 Y22.0785 
G01 X-46.4285 Y22.1262 
G01 X-46.4432 Y22.1616 
G01 X-46.4432 Y22.2515 
G01 X-46.4293 Y22.2849 
G01 X-46.4088 Y22.3345 
G01 X-46.3452 Y22.3981 
G01 X-46.3164 Y22.4269 
G01 X-46.2000 Y22.7079 
G01 X-46.2000 Y23.0121 
G01 X-46.3164 Y23.2931 
G01 X-46.5315 Y23.5082 
G01 X-46.8125 Y23.6246 
G01 X-48.4375 Y23.6246 
G01 X-48.7185 Y23.5082 
G01 X-48.9336 Y23.2931 
G01 X-49.0500 Y23.0121 
G01 X-49.0500 Y22.7079 
G01 X-48.9336 Y22.4269 
G01 X-48.7185 Y22.2118 
G01 X-48.4375 Y22.0954 
G01 X-47.3438 Y22.0954 
G01 X-47.2607 Y22.0610 
G01 X-47.1971 Y21.9974 
G01 X-45.3386 Y20.1389 
G01 X-45.3042 Y20.0558 
G01 X-45.3042 Y19.4211 
G01 X-45.2432 Y19.3601 
G01 X-43.6684 Y19.3601 
G01 X-43.5854 Y19.3257 
G01 X-43.5218 Y19.2621 
G01 X-43.4874 Y19.1791 
G01 X-43.4874 Y18.9209 
G01 X-43.5218 Y18.8379 
G01 X-43.5854 Y18.7743 
G01 X-43.6684 Y18.7399 
G01 X-45.2432 Y18.7399 
G01 X-45.3042 Y18.6789 
G01 X-45.3042 Y17.6530 
G01 X-45.3386 Y17.5699 
G01 X-45.4022 Y17.5063 
G01 X-46.0274 Y16.8811 
G01 X-46.0274 Y12.9903 
G01 X-46.0618 Y12.9072 
G01 X-46.1254 Y12.8436 
G01 X-46.2084 Y12.8092 
G01 X-46.2983 Y12.8092 
G01 X-46.3814 Y12.8436 
G01 X-46.4450 Y12.9072 
G01 X-49.5057 Y15.9679 
G01 X-49.5401 Y16.0510 
G01 X-49.5401 Y26.1765 
G01 X-49.5057 Y26.2596 
G01 X-49.4421 Y26.3231 
G01 X-48.6838 Y27.0815 
G01 X-48.6212 Y27.1441 
G01 X-48.5521 Y27.1733 
G01 X-48.5372 Y27.1794 
G01 X-48.4927 Y27.1794 
G01 X-48.4473 Y27.1794 
G01 X-48.4375 Y27.1754 
G01 X-46.8125 Y27.1754 
G01 X-46.5315 Y27.2918 
G01 X-46.3164 Y27.5069 
G01 X-46.2000 Y27.7879 
G01 X-46.2000 Y28.1196 
G01 X-46.1656 Y28.2027 
G01 X-46.1020 Y28.2663 
G01 X-46.0190 Y28.3007 
G01 X-45.9290 Y28.3007 
G01 X-45.8460 Y28.2663 
G01 X-45.7824 Y28.2027 
G01 X-45.3386 Y27.7589 
G01 X-45.3042 Y27.6758 
G01 X-45.3042 Y27.0411 
G01 X-45.2432 Y26.9801 
G01 X-43.6568 Y26.9801 
G01 X-43.5958 Y27.0411 
G01 X-43.5958 Y28.3513 
G01 X-43.6568 Y28.4123 
G01 X-45.0739 Y28.4123 
G01 X-45.1570 Y28.4467 
G01 X-45.2206 Y28.5103 
G01 X-46.4088 Y29.6985 
G01 X-46.4285 Y29.7462 
G01 X-46.4432 Y29.7816 
G01 X-46.4432 Y29.8715 
G01 X-46.4293 Y29.9049 
G01 X-46.4088 Y29.9545 
G01 X-46.3452 Y30.0181 
G01 X-46.3164 Y30.0469 
G01 X-46.2000 Y30.3279 
G01 X-46.2000 Y30.6321 
G01 X-46.3164 Y30.9131 
G01 X-46.5315 Y31.1282 
G01 X-46.8125 Y31.2446 
G01 X-48.4375 Y31.2446 
G01 X-48.7185 Y31.1282 
G01 X-48.9336 Y30.9131 
G01 X-49.0500 Y30.6321 
G01 X-49.0500 Y30.3279 
G01 X-48.9336 Y30.0469 
G01 X-48.7185 Y29.8318 
G01 X-48.4375 Y29.7154 
G01 X-47.3438 Y29.7154 
G01 X-47.2607 Y29.6810 
G01 X-47.1971 Y29.6174 
G01 X-46.6383 Y29.0586 
G01 X-46.6039 Y28.9755 
G01 X-46.6039 Y28.8856 
G01 X-46.6383 Y28.8026 
G01 X-46.7019 Y28.7390 
G01 X-46.7850 Y28.7046 
G01 X-48.4375 Y28.7046 
G01 X-48.7185 Y28.5882 
G01 X-48.9336 Y28.3731 
G01 X-49.0500 Y28.0921 
G01 X-49.0500 Y27.7879 
G01 X-49.0392 Y27.7618 
G01 X-49.0311 Y27.7422 
G01 X-49.0311 Y27.6978 
G01 X-49.0311 Y27.6523 
G01 X-49.0390 Y27.6331 
G01 X-49.0655 Y27.5693 
G01 X-49.1220 Y27.5127 
G01 X-49.1290 Y27.5057 
G01 X-50.1549 Y26.4798 
G01 X-50.1549 Y15.7477 
G01 X-49.8768 Y15.4696 
G01 X-44.5936 Y10.1864 
G01 X-44.5592 Y10.1034 
G01 X-44.5592 Y10.0134 
G01 X-44.5936 Y9.9304 
G01 X-44.6572 Y9.8668 
G01 X-44.7403 Y9.8324 
G01 X-46.1040 Y9.8324 
G01 X-46.1871 Y9.8668 
G01 X-46.2496 Y9.9294 
G01 X-46.2850 Y10.0134 
G01 X-46.3906 Y10.2682 
G01 X-46.6056 Y10.4833 
G01 X-46.8867 Y10.5997 
G01 X-46.9463 Y10.5997 
G01 X-47.0294 Y10.6341 
G01 X-47.0929 Y10.6977 
G01 X-47.4058 Y11.0105 
G01 X-47.4684 Y11.0731 
G01 X-47.5038 Y11.1571 
G01 X-47.5038 Y11.2471 
G01 X-47.4694 Y11.3301 
G01 X-47.1022 Y11.6973 
G01 X-47.1022 Y11.7836 
G01 X-48.2239 Y12.9053 
G01 X-48.3102 Y12.9053 
G01 X-49.2366 Y11.9789 
G01 X-49.2366 Y11.8926 
G01 X-48.1149 Y10.7709 
G01 X-48.0843 Y10.7709 
G01 X-48.0012 Y10.7365 
G01 X-47.9377 Y10.6729 
G01 X-47.8015 Y10.5368 
G01 X-47.7389 Y10.4742 
G01 X-47.7035 Y10.3902 
G01 X-47.7035 Y10.3002 
G01 X-47.7379 Y10.2172 
G01 X-48.6209 Y9.3343 
G01 X-48.7373 Y9.0532 
G01 X-48.7373 Y8.7490 
G01 X-48.6209 Y8.4680 
G01 X-48.4058 Y8.2529 
G01 X-48.1248 Y8.1365 
G01 X-47.8206 Y8.1365 
G01 X-47.5396 Y8.2529 
G01 X-46.6093 Y9.1832 
G01 X-46.5263 Y9.2176 
G01 X-45.7597 Y9.2176 
G01 X-45.7237 Y9.2204 
G01 X-45.7150 Y9.2176 
G01 X-45.7059 Y9.2176 
G01 X-45.6726 Y9.2038 
G01 X-45.6382 Y9.1926 
G01 X-45.6313 Y9.1867 
G01 X-45.6228 Y9.1832 
G01 X-45.5973 Y9.1577 
G01 X-45.5699 Y9.1342 
G01 X-45.5657 Y9.1261 
G01 X-45.5592 Y9.1196 
G01 X-45.5454 Y9.0863 
G01 X-45.5291 Y9.0541 
G01 X-45.5283 Y9.0450 
G01 X-45.5248 Y9.0366 
G01 X-45.5248 Y9.0005 
G01 X-45.5220 Y8.9645 
G01 X-45.5248 Y8.9558 
G01 X-45.5248 Y8.9466 
G01 X-45.5386 Y8.9133 
G01 X-45.5498 Y8.8790 
G01 X-45.5557 Y8.8720 
G01 X-45.5592 Y8.8636 
G01 X-45.5848 Y8.8381 
G01 X-45.6082 Y8.8106 
G01 X-45.6163 Y8.8065 
G01 X-45.6228 Y8.8000 
G01 X-45.6561 Y8.7862 
G01 X-45.6983 Y8.7647 
G01 X-45.8022 Y8.6893 
G01 X-46.1008 Y8.3906 
G01 X-46.0612 Y8.3510 
G01 X-45.7551 Y8.6572 
G01 X-45.6307 Y8.7403 
G01 X-45.4925 Y8.7975 
G01 X-45.3458 Y8.8267 
G01 X-45.1962 Y8.8267 
G01 X-45.0495 Y8.7975 
G01 X-44.9920 Y8.7737 
G01 X-44.9436 Y8.8221 
G01 X-44.9572 Y8.8381 
G01 X-44.9827 Y8.8636 
G01 X-44.9862 Y8.8720 
G01 X-44.9922 Y8.8790 
G01 X-45.0033 Y8.9133 
G01 X-45.0171 Y8.9466 
G01 X-45.0171 Y8.9558 
G01 X-45.0200 Y8.9645 
G01 X-45.0171 Y9.0005 
G01 X-45.0171 Y9.0366 
G01 X-45.0136 Y9.0450 
G01 X-45.0129 Y9.0541 
G01 X-44.9965 Y9.0863 
G01 X-44.9827 Y9.1196 
G01 X-44.9763 Y9.1261 
G01 X-44.9721 Y9.1342 
G01 X-44.9447 Y9.1577 
G01 X-44.9192 Y9.1832 
G01 X-44.9107 Y9.1867 
G01 X-44.9037 Y9.1926 
G01 X-44.8694 Y9.2038 
G01 X-44.8361 Y9.2176 
G01 X-44.8269 Y9.2176 
G01 X-44.8182 Y9.2204 
G01 X-44.7822 Y9.2176 
G01 X-44.6260 Y9.2176 
G01 X-44.5429 Y9.1832 
G01 X-44.4793 Y9.1196 
G01 X-42.0373 Y6.6776 
G01 X-37.9585 Y6.6776 
G01 X-37.8754 Y6.6432 
G01 X-37.8118 Y6.5796 
G01 X-33.4648 Y2.2326 
G01 X-21.7802 Y2.2326 
G01 X-21.5021 Y2.5106 
G01 X-16.0996 Y7.9132 
G01 X-16.0165 Y7.9476 
G01 X-12.3652 Y7.9476 
G01 X-12.2822 Y7.9132 
G01 X-11.4661 Y7.0972 
G01 X-11.3798 Y7.0972 
G01 X-11.3508 Y7.1262 
G01 X-11.2677 Y7.1606 
G01 X-11.1778 Y7.1606 
G01 X-11.0948 Y7.1262 
G01 X-11.0312 Y7.0626 
G01 X-10.6862 Y6.7176 
G01 X-10.6236 Y6.6550 
G01 X-10.6086 Y6.6203 
G01 X-10.5882 Y6.5710 
G01 X-10.5882 Y6.4811 
G01 X-10.5997 Y6.4533 
G01 X-10.5997 Y6.1491 
G01 X-10.4833 Y5.8681 
G01 X-9.3343 Y4.7191 
G01 X-9.0532 Y4.6027 
G01 X-8.7490 Y4.6027 
G01 X-8.4680 Y4.7191 
G01 X-8.2529 Y4.9342 
G01 X-8.1365 Y5.2152 
G01 X-8.1365 Y5.5194 
G01 X-8.2529 Y5.8004 
G01 X-9.4020 Y6.9494 
G01 X-9.6830 Y7.0658 
G01 X-9.9872 Y7.0658 
G01 X-10.0149 Y7.0544 
G01 X-10.1048 Y7.0544 
G01 X-10.1528 Y7.0742 
G01 X-10.1879 Y7.0888 
G01 X-10.2514 Y7.1523 
G01 X-10.6600 Y7.5609 
G01 X-10.6944 Y7.6440 
G01 X-10.6944 Y7.7339 
G01 X-10.6600 Y7.8170 
G01 X-10.5965 Y7.8805 
G01 X-10.4534 Y8.0236 
G01 X-10.4534 Y8.1099 
G01 X-11.6214 Y9.2778 
G01 X-11.6419 Y9.3275 
G01 X-11.6558 Y9.3609 
G01 X-11.6558 Y9.4508 
G01 X-11.6411 Y9.4862 
G01 X-11.6214 Y9.5339 
G01 X-11.5578 Y9.5974 
G01 X-11.5145 Y9.6408 
G01 X-11.4961 Y9.6647 
G01 X-11.4830 Y9.6723 
G01 X-11.4722 Y9.6830 
G01 X-11.4444 Y9.6946 
G01 X-11.4182 Y9.7096 
G01 X-11.4032 Y9.7116 
G01 X-11.3892 Y9.7174 
G01 X-11.3590 Y9.7174 
G01 X-11.3291 Y9.7214 
G01 X-11.3144 Y9.7174 
G01 X-11.2993 Y9.7174 
G01 X-11.2714 Y9.7059 
G01 X-11.2423 Y9.6981 
G01 X-11.2302 Y9.6888 
G01 X-11.2162 Y9.6830 
G01 X-11.1949 Y9.6617 
G01 X-11.1709 Y9.6433 
G01 X-11.1634 Y9.6302 
G01 X-11.1526 Y9.6195 
G01 X-11.1490 Y9.6107 
G01 X-10.8612 Y9.3230 
G01 X-10.8216 Y9.3626 
G01 X-11.1163 Y9.6572 
G01 X-11.1314 Y9.6936 
G01 X-11.1314 Y9.7330 
G01 X-11.1163 Y9.7694 
G01 X-10.2231 Y10.6626 
G01 X-10.1867 Y10.6776 
G01 X-10.1473 Y10.6776 
G01 X-10.1109 Y10.6626 
G01 X-9.8163 Y10.3679 
G01 X-9.7767 Y10.4075 
G01 X-10.0645 Y10.6953 
G01 X-10.0732 Y10.6989 
G01 X-10.0839 Y10.7096 
G01 X-10.0971 Y10.7172 
G01 X-10.1154 Y10.7411 
G01 X-10.1368 Y10.7625 
G01 X-10.1426 Y10.7765 
G01 X-10.1518 Y10.7885 
G01 X-10.1596 Y10.8177 
G01 X-10.1712 Y10.8455 
G01 X-10.1712 Y10.8607 
G01 X-10.1751 Y10.8754 
G01 X-10.1712 Y10.9053 
G01 X-10.1712 Y10.9354 
G01 X-10.1654 Y10.9495 
G01 X-10.1634 Y10.9645 
G01 X-10.1483 Y10.9906 
G01 X-10.1368 Y11.0185 
G01 X-10.1260 Y11.0292 
G01 X-10.1185 Y11.0424 
G01 X-10.0945 Y11.0608 
G01 X-7.5271 Y13.6282 
G01 X-7.4440 Y13.6626 
G01 X-5.9052 Y13.6626 
G01 X-5.6271 Y13.9406 
G01 X-4.7726 Y14.7952 
G01 X-4.7726 Y19.1915 
G01 X-4.7382 Y19.2746 
G01 X-4.7029 Y19.3099 
G01 X-2.5107 Y21.5021 
G01 X-2.4824 Y21.5304 
G01 X-2.4471 Y21.5657 
G01 X-2.2326 Y21.7802 
G01 X-2.2326 Y31.8773 
G01 X-2.4471 Y32.0918 
G01 X-2.5107 Y32.1554 
G01 X-6.6432 Y36.2879 
G01 X-6.6776 Y36.3710 
G01 X-6.6776 Y40.2398 
G01 X-6.6432 Y40.3228 
G01 X-6.5796 Y40.3864 
G01 X-6.4966 Y40.4208 
G01 X-6.0861 Y40.4208 
G01 X-6.0251 Y40.4818 
G01 X-6.0251 Y42.0682 
G01 X-6.0861 Y42.1292 
G01 X-6.4966 Y42.1292 
G01 X-6.5796 Y42.1636 
G01 X-6.6432 Y42.2272 
G01 X-6.6776 Y42.3102 
G01 X-6.6776 Y42.5593 
G01 X-6.6432 Y42.6423 
G01 X-6.5796 Y42.7059 
G01 X-6.4966 Y42.7403 
G01 X-6.1491 Y42.7403 
G01 X-5.8681 Y42.8567 
G01 X-4.7191 Y44.0057 
G01 X-4.6027 Y44.2868 
G01 X-4.6027 Y44.5909 
G01 X-4.7191 Y44.8720 
G01 X-4.9342 Y45.0871 
G01 X-5.2152 Y45.2035 
G01 X-5.5194 Y45.2035 
G01 X-5.8004 Y45.0871 
G01 X-6.7307 Y44.1568 
G01 X-6.8137 Y44.1224 
G01 X-7.5803 Y44.1224 
G01 X-7.6162 Y44.1196 
G01 X-7.6249 Y44.1224 
G01 X-7.6341 Y44.1224 
G01 X-7.6674 Y44.1362 
G01 X-7.7017 Y44.1474 
G01 X-7.7087 Y44.1533 
G01 X-7.7172 Y44.1568 
G01 X-7.7427 Y44.1823 
G01 X-7.7701 Y44.2057 
G01 X-7.7743 Y44.2139 
G01 X-7.7807 Y44.2204 
G01 X-7.7945 Y44.2537 
G01 X-7.8109 Y44.2859 
G01 X-7.8116 Y44.2950 
G01 X-7.8151 Y44.3034 
G01 X-7.8151 Y44.3395 
G01 X-7.8180 Y44.3755 
G01 X-7.8151 Y44.3842 
G01 X-7.8151 Y44.3933 
G01 X-7.8013 Y44.4267 
G01 X-7.7902 Y44.4610 
G01 X-7.7842 Y44.4680 
G01 X-7.7807 Y44.4764 
G01 X-7.7552 Y44.5019 
G01 X-7.7318 Y44.5294 
G01 X-7.7236 Y44.5335 
G01 X-7.7172 Y44.5400 
G01 X-7.6838 Y44.5538 
G01 X-7.6416 Y44.5753 
G01 X-7.5378 Y44.6507 
G01 X-7.2391 Y44.9494 
G01 X-7.2787 Y44.9890 
G01 X-7.5849 Y44.6828 
G01 X-7.7093 Y44.5997 
G01 X-7.8475 Y44.5425 
G01 X-7.9942 Y44.5133 
G01 X-8.1438 Y44.5133 
G01 X-8.2905 Y44.5425 
G01 X-8.4287 Y44.5997 
G01 X-8.5531 Y44.6828 
G01 X-8.6589 Y44.7886 
G01 X-8.7420 Y44.9130 
G01 X-8.7992 Y45.0512 
G01 X-8.8284 Y45.1979 
G01 X-8.8284 Y45.3475 
G01 X-8.7992 Y45.4942 
G01 X-8.7420 Y45.6324 
G01 X-8.6589 Y45.7568 
G01 X-8.3527 Y46.0629 
G01 X-8.3923 Y46.1025 
G01 X-8.6910 Y45.8039 
G01 X-8.7664 Y45.7000 
G01 X-8.8247 Y45.5857 
G01 X-8.8643 Y45.4636 
G01 X-8.8844 Y45.3369 
G01 X-8.8844 Y45.2085 
G01 X-8.8665 Y45.0953 
G01 X-8.8604 Y45.0819 
G01 X-8.8595 Y45.0513 
G01 X-8.8547 Y45.0211 
G01 X-8.8582 Y45.0068 
G01 X-8.8577 Y44.9920 
G01 X-8.8686 Y44.9634 
G01 X-8.8757 Y44.9337 
G01 X-8.8844 Y44.9218 
G01 X-8.8896 Y44.9079 
G01 X-8.9106 Y44.8857 
G01 X-8.9286 Y44.8610 
G01 X-8.9412 Y44.8532 
G01 X-8.9513 Y44.8425 
G01 X-8.9792 Y44.8300 
G01 X-9.0052 Y44.8140 
G01 X-9.0198 Y44.8117 
G01 X-9.0333 Y44.8056 
G01 X-9.0638 Y44.8047 
G01 X-9.0940 Y44.7999 
G01 X-9.1084 Y44.8034 
G01 X-9.1232 Y44.8029 
G01 X-9.1391 Y44.8090 
G01 X-9.1435 Y44.8082 
G01 X-9.1588 Y44.8118 
G01 X-9.1744 Y44.8113 
G01 X-9.2022 Y44.8218 
G01 X-9.2311 Y44.8285 
G01 X-9.2438 Y44.8376 
G01 X-9.2585 Y44.8432 
G01 X-9.2801 Y44.8635 
G01 X-9.6657 Y45.1390 
G01 X-9.6901 Y45.1512 
G01 X-9.7020 Y45.1649 
G01 X-9.7168 Y45.1754 
G01 X-9.7312 Y45.1985 
G01 X-9.7476 Y45.2175 
G01 X-9.8011 Y45.2442 
G01 X-9.8188 Y45.2483 
G01 X-9.8409 Y45.2641 
G01 X-9.8653 Y45.2763 
G01 X-9.8772 Y45.2900 
G01 X-9.9259 Y45.3248 
G01 X-9.9503 Y45.3305 
G01 X-9.9775 Y45.3324 
G01 X-9.9937 Y45.3405 
G01 X-10.0114 Y45.3446 
G01 X-10.0335 Y45.3604 
G01 X-10.2892 Y45.4883 
G01 X-10.3166 Y45.4974 
G01 X-10.3290 Y45.5082 
G01 X-10.3437 Y45.5155 
G01 X-10.3626 Y45.5374 
G01 X-10.3768 Y45.5496 
G01 X-10.4398 Y45.5706 
G01 X-10.4562 Y45.5718 
G01 X-10.4821 Y45.5847 
G01 X-10.5095 Y45.5938 
G01 X-10.5219 Y45.6046 
G01 X-10.5813 Y45.6344 
G01 X-10.6000 Y45.6357 
G01 X-10.6288 Y45.6336 
G01 X-10.6444 Y45.6388 
G01 X-10.6609 Y45.6400 
G01 X-10.6867 Y45.6529 
G01 X-11.2265 Y45.8329 
G01 X-11.2501 Y45.8361 
G01 X-11.2688 Y45.8469 
G01 X-11.2892 Y45.8538 
G01 X-11.3072 Y45.8694 
G01 X-11.3278 Y45.8814 
G01 X-11.3324 Y45.8874 
G01 X-11.3860 Y45.8947 
G01 X-11.4075 Y45.8932 
G01 X-11.4301 Y45.9007 
G01 X-11.4537 Y45.9039 
G01 X-11.4723 Y45.9148 
G01 X-11.5236 Y45.9319 
G01 X-11.5304 Y45.9285 
G01 X-11.5541 Y45.9268 
G01 X-11.5772 Y45.9207 
G01 X-11.5986 Y45.9236 
G01 X-11.6201 Y45.9221 
G01 X-11.6427 Y45.9296 
G01 X-12.1478 Y45.9983 
G01 X-12.1774 Y45.9983 
G01 X-12.1919 Y46.0043 
G01 X-12.2075 Y46.0064 
G01 X-12.2331 Y46.0214 
G01 X-12.2605 Y46.0327 
G01 X-12.2716 Y46.0438 
G01 X-12.2851 Y46.0517 
G01 X-12.3031 Y46.0753 
G01 X-16.7002 Y50.4724 
G01 X-31.8773 Y50.4724 
G01 X-32.1369 Y50.2128 
G01 X-34.9543 Y47.3954 
G01 X-34.9728 Y47.3769 
G01 X-35.0179 Y47.3318 
G01 X-35.1010 Y47.2974 
G01 X-40.7673 Y47.2974 
G01 X-41.9738 Y46.0909 
G01 X-42.0163 Y46.0485 
G01 X-42.0374 Y46.0274 
G01 X-42.1204 Y45.9930 
G01 X-42.2103 Y45.9930 
G01 X-42.2934 Y46.0274 
G01 X-42.3570 Y46.0909 
G01 X-42.5089 Y46.2428 
G01 X-42.5844 Y46.2428 
G01 X-42.6675 Y46.2772 
G01 X-42.7311 Y46.3408 
G01 X-42.7589 Y46.3687 
G01 X-42.8225 Y46.4322 
G01 X-42.8465 Y46.4903 
G01 X-42.8569 Y46.5153 
G01 X-42.8569 Y46.6052 
G01 X-42.7403 Y46.8867 
G01 X-42.7403 Y47.1908 
G01 X-42.8567 Y47.4719 
G01 X-44.0057 Y48.6209 
G01 X-44.2868 Y48.7373 
G01 X-44.5909 Y48.7373 
G01 X-44.8720 Y48.6209 
G01 X-45.0871 Y48.4058 
G01 X-45.2035 Y48.1248 
G01 X-45.2035 Y47.8206 
G01 X-45.0871 Y47.5396 
G01 X-43.9380 Y46.3906 
G01 X-43.6570 Y46.2741 
G01 X-43.5825 Y46.2741 
G01 X-43.4995 Y46.2397 
G01 X-43.1769 Y45.9172 
G01 X-43.1425 Y45.8341 
G01 X-43.1425 Y45.7442 
G01 X-43.1769 Y45.6611 
G01 X-43.2405 Y45.5975 
G01 X-43.5216 Y45.3164 
G01 X-43.5216 Y45.2301 
G01 X-42.3999 Y44.1084 
G01 X-42.3136 Y44.1084 
G01 X-42.2563 Y44.1656 
G01 X-42.2062 Y44.1878 
G01 X-42.1709 Y44.2025 
G01 X-42.0809 Y44.2025 
G01 X-42.0475 Y44.1886 
G01 X-41.9979 Y44.1681 
G01 X-41.9343 Y44.1045 
G01 X-41.9146 Y44.0568 
G01 X-41.8999 Y44.0214 
G01 X-41.8999 Y43.0385 
G01 X-41.9343 Y42.9554 
G01 X-41.9979 Y42.8918 
G01 X-44.7574 Y40.1323 
G01 X-44.7574 Y37.3377 
G01 X-44.5429 Y37.1232 
G01 X-44.4793 Y37.0596 
G01 X-44.1568 Y36.7371 
G01 X-43.8774 Y36.4577 
G01 X-43.8430 Y36.3746 
G01 X-43.8430 Y36.1772 
G01 X-43.7820 Y36.1162 
G01 X-42.9095 Y36.1162 
G01 X-42.8897 Y36.1188 
G01 X-42.8699 Y36.1162 
G01 X-42.8296 Y36.1162 
G01 X-42.8231 Y36.1135 
G01 X-42.8108 Y36.1084 
G01 X-42.7923 Y36.1008 
G01 X-42.7730 Y36.0956 
G01 X-42.7647 Y36.0908 
G01 X-41.3512 Y36.0908 
G01 X-41.2682 Y36.0564 
G01 X-41.2046 Y35.9928 
G01 X-41.1702 Y35.9098 
G01 X-41.1702 Y35.5087 
G01 X-41.1663 Y35.4788 
G01 X-41.1702 Y35.4641 
G01 X-41.1702 Y34.2468 
G01 X-41.1092 Y34.1858 
G01 X-39.8584 Y34.1858 
G01 X-39.7754 Y34.1514 
G01 X-39.7118 Y34.0878 
G01 X-39.6774 Y34.0048 
G01 X-39.6774 Y32.6716 
G01 X-39.6774 Y32.6271 
G01 X-39.6774 Y32.5817 
G01 X-39.6956 Y32.5377 
G01 X-39.7118 Y32.4987 
G01 X-39.7539 Y32.4566 
G01 X-39.7754 Y32.4351 
G01 X-39.8031 Y32.4236 
G01 X-40.0182 Y32.2085 
G01 X-40.1346 Y31.9275 
G01 X-40.1346 Y30.3025 
G01 X-40.0182 Y30.0215 
G01 X-39.8031 Y29.8064 
G01 X-39.5221 Y29.6900 
G01 X-39.2179 Y29.6900 
G01 X-38.9369 Y29.8064 
G01 X-38.7218 Y30.0215 
G01 X-38.6054 Y30.3025 
G01 X-38.6054 Y31.9275 
G01 X-38.7218 Y32.2085 
G01 X-38.9369 Y32.4236 
G01 X-38.9646 Y32.4351 
G01 X-38.9855 Y32.4559 
G01 X-39.0282 Y32.4986 
G01 X-39.0440 Y32.5367 
G01 X-39.0626 Y32.5817 
G01 X-39.0626 Y32.6262 
G01 X-39.0626 Y32.6716 
G01 X-39.0626 Y34.0048 
G01 X-39.0282 Y34.0878 
G01 X-38.9646 Y34.1514 
G01 X-38.8816 Y34.1858 
G01 X-36.9191 Y34.1858 
G01 X-36.9040 Y34.1921 
G01 X-36.8887 Y34.1921 
G01 X-36.8740 Y34.1960 
G01 X-36.8442 Y34.1921 
G01 X-36.8140 Y34.1921 
G01 X-36.8000 Y34.1863 
G01 X-36.7849 Y34.1843 
G01 X-36.7588 Y34.1692 
G01 X-36.7310 Y34.1577 
G01 X-36.7202 Y34.1469 
G01 X-36.6784 Y34.1350 
G01 X-34.9790 Y34.1350 
G01 X-34.9790 Y34.1910 
G01 X-36.6777 Y34.1910 
G01 X-36.7141 Y34.2061 
G01 X-36.7419 Y34.2339 
G01 X-36.7570 Y34.2703 
G01 X-36.7570 Y38.1197 
G01 X-36.7419 Y38.1561 
G01 X-36.7141 Y38.1839 
G01 X-36.6777 Y38.1990 
G01 X-34.9790 Y38.1990 
G01 X-34.9790 Y38.2550 
G01 X-36.6784 Y38.2550 
G01 X-36.7178 Y38.2444 
G01 X-36.7310 Y38.2323 
G01 X-36.7588 Y38.2208 
G01 X-36.7849 Y38.2057 
G01 X-36.8000 Y38.2037 
G01 X-36.8140 Y38.1979 
G01 X-36.8442 Y38.1979 
G01 X-36.8740 Y38.1940 
G01 X-36.8887 Y38.1979 
G01 X-36.9040 Y38.1979 
G01 X-36.9191 Y38.2042 
G01 X-41.1702 Y38.2042 
G01 X-41.1702 Y37.7502 
G01 X-41.2046 Y37.6672 
G01 X-41.2682 Y37.6036 
G01 X-41.3512 Y37.5692 
G01 X-42.7682 Y37.5692 
G01 X-42.8296 Y37.5438 
G01 X-43.7820 Y37.5438 
G01 X-43.7886 Y37.5372 
G01 X-43.8716 Y37.5028 
G01 X-43.9161 Y37.5028 
G01 X-43.9615 Y37.5028 
G01 X-43.9751 Y37.5084 
G01 X-44.0446 Y37.5372 
G01 X-44.1082 Y37.6007 
G01 X-44.1426 Y37.6838 
G01 X-44.1426 Y37.7283 
G01 X-44.1426 Y37.7737 
G01 X-44.1426 Y38.1977 
G01 X-44.1426 Y38.2422 
G01 X-44.1426 Y38.2876 
G01 X-44.1082 Y38.3707 
G01 X-44.0451 Y38.4337 
G01 X-43.9765 Y38.4624 
G01 X-43.9616 Y38.4686 
G01 X-43.9171 Y38.4686 
G01 X-43.8716 Y38.4686 
G01 X-43.7886 Y38.4342 
G01 X-43.7820 Y38.4276 
G01 X-41.3994 Y38.4276 
G01 X-41.3994 Y39.4216 
G01 X-41.3650 Y39.5046 
G01 X-41.3014 Y39.5682 
G01 X-39.7332 Y41.1364 
G01 X-39.6502 Y41.1708 
G01 X-36.9191 Y41.1708 
G01 X-36.9040 Y41.1771 
G01 X-36.8887 Y41.1771 
G01 X-36.8740 Y41.1810 
G01 X-36.8442 Y41.1771 
G01 X-36.8140 Y41.1771 
G01 X-36.8000 Y41.1713 
G01 X-36.7849 Y41.1693 
G01 X-36.7588 Y41.1542 
G01 X-36.7310 Y41.1427 
G01 X-36.7202 Y41.1319 
G01 X-36.6784 Y41.1200 
G01 X-35.8622 Y41.1200 
G01 X-35.8622 Y41.1760 
G01 X-36.6777 Y41.1760 
G01 X-36.7141 Y41.1911 
G01 X-36.7419 Y41.2189 
G01 X-36.7570 Y41.2553 
G01 X-36.7570 Y45.1047 
G01 X-36.7419 Y45.1411 
G01 X-36.7141 Y45.1689 
G01 X-36.6777 Y45.1840 
G01 X-32.5743 Y45.1840 
G01 X-32.5379 Y45.1689 
G01 X-32.5101 Y45.1411 
G01 X-32.4950 Y45.1047 
G01 X-32.4950 Y41.2553 
G01 X-32.5101 Y41.2189 
G01 X-32.5379 Y41.1911 
G01 X-32.5743 Y41.1760 
G01 X-33.3528 Y41.1760 
G01 X-33.3528 Y41.1200 
G01 X-32.5736 Y41.1200 
G01 X-32.5342 Y41.1306 
G01 X-32.4988 Y41.1510 
G01 X-32.4700 Y41.1798 
G01 X-32.4496 Y41.2152 
G01 X-32.4390 Y41.2546 
G01 X-32.4390 Y42.7899 
G01 X-32.4046 Y42.8730 
G01 X-32.3410 Y42.9366 
G01 X-32.2580 Y42.9710 
G01 X-32.1680 Y42.9710 
G01 X-32.0850 Y42.9366 
G01 X-32.0214 Y42.8730 
G01 X-30.2122 Y41.0638 
G01 X-30.1778 Y40.9807 
G01 X-30.1778 Y40.7272 
G01 X-30.1203 Y40.7034 
G01 X-29.9959 Y40.6203 
G01 X-29.8901 Y40.5145 
G01 X-29.8070 Y40.3901 
G01 X-29.7498 Y40.2519 
G01 X-29.7206 Y40.1052 
G01 X-29.7206 Y39.6722 
G01 X-29.6646 Y39.6722 
G01 X-29.6646 Y39.9256 
G01 X-29.6646 Y40.0155 
G01 X-29.6302 Y40.0986 
G01 X-29.5989 Y40.1299 
G01 X-29.5666 Y40.1622 
G01 X-29.4836 Y40.1966 
G01 X-29.3936 Y40.1966 
G01 X-29.3106 Y40.1622 
G01 X-29.2594 Y40.1110 
G01 X-29.2470 Y40.0986 
G01 X-28.8026 Y39.6542 
G01 X-28.7390 Y39.5906 
G01 X-28.7046 Y39.5075 
G01 X-28.7046 Y38.5575 
G01 X-28.6792 Y38.4962 
G01 X-28.6792 Y33.8938 
G01 X-28.7046 Y33.8325 
G01 X-28.7046 Y32.2075 
G01 X-28.7006 Y32.1978 
G01 X-28.7005 Y32.1530 
G01 X-28.7005 Y32.1079 
G01 X-28.7173 Y32.0673 
G01 X-28.7349 Y32.0248 
G01 X-28.7688 Y31.9909 
G01 X-28.7985 Y31.9612 
G01 X-29.9379 Y30.8218 
G01 X-30.0210 Y30.7874 
G01 X-33.3444 Y30.7874 
G01 X-33.4274 Y30.8218 
G01 X-33.4910 Y30.8854 
G01 X-33.5254 Y30.9684 
G01 X-33.5254 Y31.9275 
G01 X-33.6418 Y32.2085 
G01 X-33.8569 Y32.4236 
G01 X-34.1379 Y32.5400 
G01 X-34.4421 Y32.5400 
G01 X-34.7231 Y32.4236 
G01 X-34.9382 Y32.2085 
G01 X-35.0546 Y31.9275 
G01 X-35.0546 Y30.3025 
G01 X-34.9382 Y30.0215 
G01 X-34.7231 Y29.8064 
G01 X-34.4421 Y29.6900 
G01 X-34.1379 Y29.6900 
G01 X-33.8569 Y29.8064 
G01 X-33.6418 Y30.0215 
G01 X-33.6366 Y30.0340 
G01 X-33.6198 Y30.0746 
G01 X-33.5562 Y30.1382 
G01 X-33.5430 Y30.1437 
G01 X-33.4732 Y30.1726 
G01 X-29.7177 Y30.1726 
G01 X-28.3743 Y31.5159 
G01 X-28.3117 Y31.5786 
G01 X-28.2426 Y31.6077 
G01 X-28.2277 Y31.6139 
G01 X-28.1832 Y31.6139 
G01 X-28.1378 Y31.6139 
G01 X-28.1200 Y31.6066 
G01 X-28.0921 Y31.5950 
G01 X-27.7879 Y31.5950 
G01 X-27.5069 Y31.7114 
G01 X-27.3314 Y31.8869 
G01 X-27.2484 Y31.9213 
G01 X-27.1584 Y31.9213 
G01 X-27.0777 Y31.8879 
G01 X-27.0118 Y31.8233 
G01 X-26.9774 Y31.7402 
G01 X-26.9774 Y31.2910 
G01 X-27.0118 Y31.2079 
G01 X-27.0754 Y31.1443 
G01 X-29.3029 Y28.9168 
G01 X-29.3860 Y28.8824 
G01 X-33.1060 Y28.8824 
G01 X-33.1890 Y28.9168 
G01 X-33.2816 Y29.0094 
G01 X-35.4000 Y29.0094 
G01 X-35.4610 Y28.9484 
G01 X-35.4610 Y28.2016 
G01 X-35.3274 Y28.0680 
G01 X-35.2930 Y27.9850 
G01 X-35.2930 Y27.8950 
G01 X-35.3264 Y27.8143 
G01 X-35.3909 Y27.7484 
G01 X-35.4926 Y27.6468 
G01 X-35.5756 Y27.6124 
G01 X-38.5590 Y27.6124 
G01 X-38.6421 Y27.6468 
G01 X-38.7056 Y27.7104 
G01 X-43.1384 Y32.1432 
G01 X-43.1725 Y32.1773 
G01 X-45.2706 Y34.2753 
G01 X-45.2927 Y34.2975 
G01 X-45.3268 Y34.3315 
G01 X-45.3782 Y34.3829 
G01 X-45.4126 Y34.4660 
G01 X-45.4126 Y42.3101 
G01 X-46.1894 Y43.0869 
G01 X-46.1961 Y43.0936 
G01 X-46.2529 Y43.1504 
G01 X-46.2584 Y43.1637 
G01 X-46.2873 Y43.2335 
G01 X-46.2873 Y43.3234 
G01 X-46.2758 Y43.3511 
G01 X-46.2758 Y43.6553 
G01 X-46.3922 Y43.9363 
G01 X-47.5413 Y45.0854 
G01 X-47.7715 Y45.1807 
G01 X-47.8505 Y45.2134 
G01 X-47.8546 Y45.2151 
G01 X-47.9182 Y45.2787 
G01 X-47.9526 Y45.3618 
G01 X-47.9526 Y46.8140 
G01 X-47.9182 Y46.8971 
G01 X-47.8546 Y46.9606 
G01 X-44.9921 Y49.8232 
G01 X-44.9090 Y49.8576 
G01 X-33.5277 Y49.8576 
G01 X-32.2921 Y51.0932 
G01 X-32.2090 Y51.1276 
G01 X-13.4734 Y51.1276 
G01 X-13.3903 Y51.0932 
G01 X-13.3420 Y51.0449 
G01 X-10.3194 Y48.0223 
G01 X-10.2568 Y47.9597 
G01 X-10.2214 Y47.8757 
G01 X-10.2214 Y47.7858 
G01 X-10.2558 Y47.7027 
G01 X-10.4850 Y47.4736 
G01 X-10.6014 Y47.1925 
G01 X-10.6014 Y46.8884 
G01 X-10.4850 Y46.6073 
G01 X-10.2699 Y46.3922 
G01 X-9.9889 Y46.2758 
G01 X-9.6847 Y46.2758 
G01 X-9.4037 Y46.3922 
G01 X-8.2546 Y47.5413 
G01 X-8.1593 Y47.7715 
G01 X-8.1266 Y47.8505 
G01 X-8.1248 Y47.8546 
G01 X-8.0613 Y47.9182 
G01 X-7.9782 Y47.9526 
G01 X-6.5260 Y47.9526 
G01 X-6.4429 Y47.9182 
G01 X-6.3793 Y47.8546 
G01 X-2.8818 Y44.3571 
G01 X-2.8474 Y44.2740 
G01 X-2.8474 Y33.5277 
G01 X-1.6118 Y32.2921 
G01 X-1.5774 Y32.2090 
G01 X-1.5774 Y21.4485 
G01 X-1.6118 Y21.3654 
G01 X-1.6754 Y21.3018 
G01 X-3.9029 Y19.0743 
G01 X-4.1174 Y18.8598 
G01 X-4.1174 Y11.4354 
G01 X-4.1151 Y11.4286 
G01 X-4.1174 Y11.3907 
G01 X-4.1174 Y11.3527 
G01 X-4.1202 Y11.3461 
G01 X-4.1206 Y11.3389 
G01 X-4.1373 Y11.3048 
G01 X-4.1518 Y11.2697 
G01 X-4.1569 Y11.2646 
G01 X-4.1601 Y11.2581 
G01 X-4.1885 Y11.2329 
G01 X-4.2154 Y11.2061 
G01 X-4.2220 Y11.2033 
G01 X-5.3119 Y10.2402 
G01 X-5.3388 Y10.2133 
G01 X-5.3454 Y10.2106 
G01 X-5.3508 Y10.2058 
G01 X-5.3867 Y10.1935 
G01 X-5.4218 Y10.1789 
G01 X-5.4290 Y10.1789 
G01 X-5.4358 Y10.1766 
G01 X-5.4737 Y10.1789 
G01 X-5.5117 Y10.1789 
G01 X-5.5184 Y10.1817 
G01 X-5.5256 Y10.1821 
G01 X-5.5597 Y10.1988 
G01 X-5.5948 Y10.2133 
G01 X-5.5999 Y10.2184 
G01 X-5.6063 Y10.2216 
G01 X-5.6315 Y10.2500 
G01 X-5.8664 Y10.4850 
G01 X-6.1475 Y10.6014 
G01 X-6.4516 Y10.6014 
G01 X-6.7327 Y10.4850 
G01 X-6.9477 Y10.2699 
G01 X-7.0641 Y9.9889 
G01 X-7.0641 Y9.6847 
G01 X-6.9477 Y9.4037 
G01 X-6.0568 Y8.5127 
G01 X-6.0224 Y8.4297 
G01 X-6.0224 Y7.7155 
G01 X-6.0181 Y7.6978 
G01 X-6.0224 Y7.6709 
G01 X-6.0224 Y7.6438 
G01 X-6.0294 Y7.6270 
G01 X-6.0322 Y7.6090 
G01 X-6.0464 Y7.5858 
G01 X-6.0568 Y7.5607 
G01 X-6.0697 Y7.5478 
G01 X-6.0792 Y7.5323 
G01 X-6.1012 Y7.5163 
G01 X-6.1204 Y7.4971 
G01 X-6.1372 Y7.4902 
G01 X-6.1519 Y7.4795 
G01 X-6.1784 Y7.4731 
G01 X-6.2034 Y7.4627 
G01 X-6.2217 Y7.4627 
G01 X-6.2394 Y7.4585 
G01 X-6.2662 Y7.4627 
G01 X-6.2934 Y7.4627 
G01 X-6.3102 Y7.4697 
G01 X-6.3282 Y7.4726 
G01 X-6.3513 Y7.4867 
G01 X-6.3764 Y7.4971 
G01 X-6.3893 Y7.5100 
G01 X-6.4048 Y7.5195 
G01 X-6.4208 Y7.5415 
G01 X-6.4400 Y7.5607 
G01 X-6.4470 Y7.5775 
G01 X-6.5114 Y7.6663 
G01 X-6.8101 Y7.9649 
G01 X-6.8497 Y7.9253 
G01 X-6.5435 Y7.6192 
G01 X-6.4604 Y7.4948 
G01 X-6.4032 Y7.3566 
G01 X-6.3740 Y7.2099 
G01 X-6.3740 Y7.0603 
G01 X-6.4032 Y6.9136 
G01 X-6.4270 Y6.8560 
G01 X-6.3534 Y6.7825 
G01 X-6.3282 Y6.7976 
G01 X-6.3102 Y6.8004 
G01 X-6.2934 Y6.8074 
G01 X-6.2662 Y6.8074 
G01 X-6.2394 Y6.8116 
G01 X-6.2217 Y6.8074 
G01 X-6.2034 Y6.8074 
G01 X-6.1784 Y6.7970 
G01 X-6.1519 Y6.7907 
G01 X-6.1372 Y6.7800 
G01 X-6.1204 Y6.7730 
G01 X-6.1012 Y6.7538 
G01 X-6.0792 Y6.7378 
G01 X-6.0697 Y6.7223 
G01 X-6.0568 Y6.7094 
G01 X-6.0464 Y6.6843 
G01 X-6.0322 Y6.6612 
G01 X-6.0294 Y6.6432 
G01 X-6.0224 Y6.6263 
G01 X-6.0224 Y6.5992 
G01 X-6.0181 Y6.5724 
G01 X-6.0224 Y6.5546 
G01 X-6.0224 Y5.8910 
G01 X-6.0568 Y5.8079 
G01 X-6.1204 Y5.7443 
G01 X-8.3479 Y3.5168 
G01 X-8.4310 Y3.4824 
G01 X-19.4948 Y3.4824 
G01 X-21.3654 Y1.6118 
G01 X-21.4485 Y1.5774 
G01 X-34.1140 Y1.5774 
G01 X-34.1971 Y1.6118 
G01 X-34.2606 Y1.6754 
G01 X-36.0677 Y3.4824 
G01 X-37.2242 Y3.4824 
G01 X-37.3073 Y3.5168 
G01 X-37.3589 Y3.5684 
G01 X-37.3693 Y3.5740 
G01 X-37.3905 Y3.6000 
G01 X-37.4142 Y3.6237 
G01 X-37.4187 Y3.6346 
G01 X-37.4385 Y3.6589 
G01 X-37.4699 Y3.6589 
G01 X-37.4812 Y3.6555 
G01 X-37.5145 Y3.6589 
G01 X-37.5480 Y3.6589 
G01 X-37.5589 Y3.6634 
G01 X-38.0170 Y3.7099 
G01 X-38.0410 Y3.7079 
G01 X-38.0613 Y3.7144 
G01 X-38.0825 Y3.7166 
G01 X-38.1037 Y3.7280 
G01 X-38.1266 Y3.7353 
G01 X-38.1429 Y3.7491 
G01 X-38.1616 Y3.7592 
G01 X-38.1769 Y3.7778 
G01 X-38.1953 Y3.7934 
G01 X-38.2050 Y3.8124 
G01 X-38.2185 Y3.8288 
G01 X-38.2254 Y3.8519 
G01 X-38.2306 Y3.8619 
G01 X-38.2430 Y3.8766 
G01 X-38.2509 Y3.9015 
G01 X-38.2629 Y3.9248 
G01 X-38.2645 Y3.9439 
G01 X-38.2679 Y3.9547 
G01 X-38.2794 Y3.9759 
G01 X-38.2815 Y3.9971 
G01 X-38.2880 Y4.0174 
G01 X-38.2860 Y4.0414 
G01 X-38.2885 Y4.0653 
G01 X-38.2823 Y4.0857 
G01 X-38.2806 Y4.1070 
G01 X-38.2695 Y4.1284 
G01 X-38.2626 Y4.1515 
G01 X-38.2492 Y4.1680 
G01 X-38.2394 Y4.1869 
G01 X-38.2210 Y4.2025 
G01 X-37.9300 Y4.5593 
G01 X-37.9255 Y4.5702 
G01 X-37.9019 Y4.5939 
G01 X-37.8807 Y4.6199 
G01 X-37.8703 Y4.6255 
G01 X-37.8481 Y4.6477 
G01 X-37.8513 Y4.6789 
G01 X-37.8558 Y4.6898 
G01 X-37.8558 Y4.7233 
G01 X-37.8592 Y4.7566 
G01 X-37.8558 Y4.7679 
G01 X-37.8558 Y4.7993 
G01 X-37.8801 Y4.8191 
G01 X-37.8910 Y4.8237 
G01 X-37.9147 Y4.8473 
G01 X-37.9407 Y4.8685 
G01 X-37.9463 Y4.8789 
G01 X-38.3011 Y5.2337 
G01 X-38.3115 Y5.2393 
G01 X-38.3327 Y5.2653 
G01 X-38.3563 Y5.2890 
G01 X-38.3608 Y5.2999 
G01 X-38.3807 Y5.3242 
G01 X-38.4121 Y5.3242 
G01 X-38.4234 Y5.3208 
G01 X-38.4567 Y5.3242 
G01 X-38.4902 Y5.3242 
G01 X-38.5011 Y5.3287 
G01 X-38.5323 Y5.3319 
G01 X-38.5545 Y5.3097 
G01 X-38.5601 Y5.2993 
G01 X-38.5861 Y5.2782 
G01 X-38.6098 Y5.2545 
G01 X-38.6207 Y5.2499 
G01 X-38.9775 Y4.9590 
G01 X-38.9931 Y4.9406 
G01 X-39.0120 Y4.9308 
G01 X-39.0285 Y4.9174 
G01 X-39.0516 Y4.9104 
G01 X-39.0730 Y4.8994 
G01 X-39.0942 Y4.8977 
G01 X-39.1147 Y4.8915 
G01 X-39.1386 Y4.8940 
G01 X-39.1626 Y4.8920 
G01 X-39.1829 Y4.8985 
G01 X-39.2041 Y4.9006 
G01 X-39.2253 Y4.9120 
G01 X-39.2361 Y4.9155 
G01 X-39.2552 Y4.9171 
G01 X-39.2785 Y4.9291 
G01 X-39.3034 Y4.9370 
G01 X-39.3181 Y4.9494 
G01 X-39.3281 Y4.9546 
G01 X-39.3511 Y4.9615 
G01 X-39.3676 Y4.9750 
G01 X-39.3866 Y4.9847 
G01 X-39.4021 Y5.0031 
G01 X-39.4208 Y5.0184 
G01 X-39.4309 Y5.0371 
G01 X-39.4447 Y5.0533 
G01 X-39.4520 Y5.0763 
G01 X-39.4634 Y5.0975 
G01 X-39.4656 Y5.1187 
G01 X-39.4721 Y5.1390 
G01 X-39.4701 Y5.1630 
G01 X-39.5166 Y5.6211 
G01 X-39.5211 Y5.6320 
G01 X-39.5211 Y5.6655 
G01 X-39.5245 Y5.6988 
G01 X-39.5211 Y5.7101 
G01 X-39.5211 Y5.7415 
G01 X-39.5454 Y5.7613 
G01 X-39.5563 Y5.7658 
G01 X-39.5800 Y5.7895 
G01 X-39.6060 Y5.8107 
G01 X-39.6116 Y5.8211 
G01 X-39.6337 Y5.8433 
G01 X-39.6650 Y5.8401 
G01 X-39.6759 Y5.8356 
G01 X-39.7094 Y5.8356 
G01 X-39.7427 Y5.8322 
G01 X-39.7540 Y5.8356 
G01 X-40.2560 Y5.8356 
G01 X-40.2673 Y5.8322 
G01 X-40.3006 Y5.8356 
G01 X-40.3341 Y5.8356 
G01 X-40.3450 Y5.8401 
G01 X-40.3762 Y5.8433 
G01 X-40.3984 Y5.8211 
G01 X-40.4040 Y5.8107 
G01 X-40.4300 Y5.7895 
G01 X-40.4537 Y5.7658 
G01 X-40.4646 Y5.7613 
G01 X-40.4889 Y5.7415 
G01 X-40.4889 Y5.7101 
G01 X-40.4855 Y5.6988 
G01 X-40.4889 Y5.6655 
G01 X-40.4889 Y5.6320 
G01 X-40.4934 Y5.6211 
G01 X-40.5399 Y5.1630 
G01 X-40.5379 Y5.1390 
G01 X-40.5444 Y5.1187 
G01 X-40.5466 Y5.0975 
G01 X-40.5580 Y5.0763 
G01 X-40.5653 Y5.0533 
G01 X-40.5791 Y5.0371 
G01 X-40.5892 Y5.0184 
G01 X-40.6079 Y5.0031 
G01 X-40.6234 Y4.9847 
G01 X-40.6424 Y4.9750 
G01 X-40.6589 Y4.9615 
G01 X-40.6819 Y4.9546 
G01 X-40.6919 Y4.9494 
G01 X-40.7066 Y4.9370 
G01 X-40.7315 Y4.9291 
G01 X-40.7548 Y4.9171 
G01 X-40.7739 Y4.9155 
G01 X-40.7847 Y4.9120 
G01 X-40.8059 Y4.9006 
G01 X-40.8271 Y4.8985 
G01 X-40.8474 Y4.8920 
G01 X-40.8714 Y4.8940 
G01 X-40.8953 Y4.8915 
G01 X-40.9158 Y4.8977 
G01 X-40.9370 Y4.8994 
G01 X-40.9584 Y4.9104 
G01 X-40.9815 Y4.9174 
G01 X-40.9980 Y4.9308 
G01 X-41.0169 Y4.9406 
G01 X-41.0325 Y4.9590 
G01 X-41.3893 Y5.2499 
G01 X-41.4002 Y5.2545 
G01 X-41.4239 Y5.2781 
G01 X-41.4499 Y5.2993 
G01 X-41.4555 Y5.3097 
G01 X-41.4777 Y5.3319 
G01 X-41.5089 Y5.3287 
G01 X-41.5198 Y5.3242 
G01 X-41.5533 Y5.3242 
G01 X-41.5866 Y5.3208 
G01 X-41.5979 Y5.3242 
G01 X-41.6708 Y5.3242 
G01 X-41.7539 Y5.3586 
G01 X-41.8174 Y5.4222 
G01 X-42.7042 Y6.3089 
G01 X-42.7386 Y6.3920 
G01 X-42.7386 Y6.4516 
G01 X-42.8550 Y6.7327 
G01 X-43.0701 Y6.9477 
G01 X-43.3511 Y7.0641 
G01 X-43.6553 Y7.0641 
G01 X-43.9363 Y6.9477 
G01 X-45.0854 Y5.7987 
G01 X-45.2018 Y5.5177 
G01 X-45.2018 Y5.2135 
G01 X-45.0854 Y4.9325 
G01 X-44.8703 Y4.7174 
G01 X-44.5892 Y4.6010 
G01 X-44.2851 Y4.6010 
G01 X-44.0040 Y4.7174 
G01 X-43.1211 Y5.6003 
G01 X-43.0380 Y5.6348 
G01 X-42.9481 Y5.6348 
G01 X-42.8651 Y5.6003 
G01 X-42.8015 Y5.5368 
G01 X-42.1886 Y4.9239 
G01 X-42.1542 Y4.8408 
G01 X-42.1542 Y4.7679 
G01 X-42.1508 Y4.7566 
G01 X-42.1542 Y4.7233 
G01 X-42.1542 Y4.6898 
G01 X-42.1587 Y4.6789 
G01 X-42.1619 Y4.6477 
G01 X-42.1397 Y4.6255 
G01 X-42.1293 Y4.6199 
G01 X-42.1081 Y4.5939 
G01 X-42.0845 Y4.5702 
G01 X-42.0799 Y4.5593 
G01 X-41.7890 Y4.2025 
G01 X-41.7706 Y4.1869 
G01 X-41.7608 Y4.1680 
G01 X-41.7474 Y4.1515 
G01 X-41.7405 Y4.1284 
G01 X-41.7294 Y4.1070 
G01 X-41.7277 Y4.0858 
G01 X-41.7215 Y4.0653 
G01 X-41.7240 Y4.0414 
G01 X-41.7220 Y4.0174 
G01 X-41.7285 Y3.9971 
G01 X-41.7306 Y3.9759 
G01 X-41.7420 Y3.9547 
G01 X-41.7455 Y3.9439 
G01 X-41.7471 Y3.9248 
G01 X-41.7591 Y3.9015 
G01 X-41.7670 Y3.8766 
G01 X-41.7794 Y3.8619 
G01 X-41.7846 Y3.8519 
G01 X-41.7915 Y3.8289 
G01 X-41.8050 Y3.8123 
G01 X-41.8147 Y3.7934 
G01 X-41.8331 Y3.7778 
G01 X-41.8484 Y3.7592 
G01 X-41.8671 Y3.7491 
G01 X-41.8834 Y3.7353 
G01 X-41.9063 Y3.7280 
G01 X-41.9275 Y3.7166 
G01 X-41.9487 Y3.7144 
G01 X-41.9690 Y3.7079 
G01 X-41.9930 Y3.7099 
G01 X-42.4511 Y3.6634 
G01 X-42.4620 Y3.6589 
G01 X-42.4955 Y3.6589 
G01 X-42.5288 Y3.6555 
G01 X-42.5401 Y3.6589 
G01 X-42.5715 Y3.6589 
G01 X-42.5913 Y3.6346 
G01 X-42.5958 Y3.6237 
G01 X-42.6195 Y3.6000 
G01 X-42.6407 Y3.5740 
G01 X-42.6511 Y3.5684 
G01 X-42.6733 Y3.5462 
G01 X-42.6701 Y3.5150 
G01 X-42.6656 Y3.5041 
G01 X-42.6656 Y3.4706 
G01 X-42.6622 Y3.4373 
G01 X-42.6656 Y3.4260 
G01 X-42.6656 Y2.9240 
G01 X-42.6622 Y2.9127 
G01 X-42.6656 Y2.8794 
G01 X-42.6656 Y2.8459 
G01 X-42.6701 Y2.8350 
G01 X-42.6733 Y2.8037 
G01 X-42.6511 Y2.7816 
G01 X-42.6407 Y2.7760 
G01 X-42.6195 Y2.7500 
G01 X-42.5958 Y2.7263 
G01 X-42.5913 Y2.7154 
G01 X-42.5715 Y2.6911 
G01 X-42.5401 Y2.6911 
G01 X-42.5288 Y2.6945 
G01 X-42.4955 Y2.6911 
G01 X-42.4620 Y2.6911 
G01 X-42.4511 Y2.6866 
G01 X-41.9930 Y2.6401 
G01 X-41.9690 Y2.6421 
G01 X-41.9487 Y2.6356 
G01 X-41.9275 Y2.6334 
G01 X-41.9063 Y2.6220 
G01 X-41.8834 Y2.6147 
G01 X-41.8671 Y2.6009 
G01 X-41.8484 Y2.5908 
G01 X-41.8331 Y2.5721 
G01 X-41.8147 Y2.5566 
G01 X-41.8050 Y2.5376 
G01 X-41.7915 Y2.5211 
G01 X-41.7846 Y2.4981 
G01 X-41.7794 Y2.4881 
G01 X-41.7670 Y2.4734 
G01 X-41.7591 Y2.4484 
G01 X-41.7471 Y2.4252 
G01 X-41.7455 Y2.4061 
G01 X-41.7420 Y2.3953 
G01 X-41.7306 Y2.3741 
G01 X-41.7285 Y2.3529 
G01 X-41.7220 Y2.3326 
G01 X-41.7240 Y2.3086 
G01 X-41.7215 Y2.2847 
G01 X-41.7277 Y2.2642 
G01 X-41.7294 Y2.2430 
G01 X-41.7404 Y2.2216 
G01 X-41.7474 Y2.1985 
G01 X-41.7608 Y2.1820 
G01 X-41.7706 Y2.1631 
G01 X-41.7890 Y2.1475 
G01 X-42.0799 Y1.7907 
G01 X-42.0845 Y1.7798 
G01 X-42.1082 Y1.7561 
G01 X-42.1293 Y1.7301 
G01 X-42.1397 Y1.7245 
G01 X-42.1619 Y1.7023 
G01 X-42.1587 Y1.6711 
G01 X-42.1542 Y1.6602 
G01 X-42.1542 Y1.6267 
G01 X-42.1508 Y1.5934 
G01 X-42.1542 Y1.5821 
G01 X-42.1542 Y1.5507 
G01 X-42.1299 Y1.5308 
G01 X-42.1190 Y1.5263 
G01 X-42.0953 Y1.5027 
G01 X-42.0693 Y1.4815 
G01 X-42.0637 Y1.4711 
G01 X-41.7089 Y1.1163 
G01 X-41.6985 Y1.1107 
G01 X-41.6773 Y1.0847 
G01 X-41.6537 Y1.0610 
G01 X-41.6491 Y1.0501 
G01 X-41.6293 Y1.0258 
G01 X-41.5979 Y1.0258 
G01 X-41.5866 Y1.0292 
G01 X-41.5533 Y1.0258 
G01 X-41.5198 Y1.0258 
G01 X-41.5089 Y1.0213 
G01 X-41.4777 Y1.0181 
G01 X-41.4555 Y1.0403 
G01 X-41.4499 Y1.0507 
G01 X-41.4239 Y1.0718 
G01 X-41.4002 Y1.0955 
G01 X-41.3893 Y1.1000 
G01 X-41.0198 Y1.4014 
G01 X-40.9961 Y1.4251 
G01 X-40.9852 Y1.4296 
G01 X-40.9761 Y1.4370 
G01 X-40.9440 Y1.4466 
G01 X-40.9131 Y1.4595 
G01 X-40.9013 Y1.4595 
G01 X-40.8900 Y1.4628 
G01 X-40.8566 Y1.4595 
G01 X-40.8231 Y1.4595 
G01 X-40.8123 Y1.4549 
G01 X-40.8005 Y1.4538 
G01 X-40.7772 Y1.4412 
G01 X-40.7699 Y1.4406 
G01 X-40.7383 Y1.4243 
G01 X-40.7054 Y1.4107 
G01 X-40.6986 Y1.4038 
G01 X-40.6710 Y1.3896 
G01 X-40.6424 Y1.4015 
G01 X-40.6350 Y1.4078 
G01 X-40.6011 Y1.4186 
G01 X-40.5683 Y1.4322 
G01 X-40.5586 Y1.4322 
G01 X-40.5290 Y1.4416 
G01 X-40.5172 Y1.4703 
G01 X-40.5164 Y1.4799 
G01 X-40.5001 Y1.5115 
G01 X-40.4865 Y1.5444 
G01 X-40.4796 Y1.5512 
G01 X-40.4576 Y1.5939 
G01 X-40.4576 Y1.6140 
G01 X-40.4539 Y1.6230 
G01 X-40.4531 Y1.6326 
G01 X-40.4369 Y1.6642 
G01 X-40.2106 Y2.2103 
G01 X-40.1966 Y2.2442 
G01 X-40.1330 Y2.3078 
G01 X-40.0500 Y2.3422 
G01 X-39.9600 Y2.3422 
G01 X-39.9107 Y2.3218 
G01 X-39.8770 Y2.3078 
G01 X-39.8134 Y2.2442 
G01 X-39.5731 Y1.6642 
G01 X-39.5569 Y1.6326 
G01 X-39.5561 Y1.6230 
G01 X-39.5523 Y1.6140 
G01 X-39.5523 Y1.5939 
G01 X-39.5304 Y1.5512 
G01 X-39.5235 Y1.5444 
G01 X-39.5099 Y1.5115 
G01 X-39.4936 Y1.4799 
G01 X-39.4928 Y1.4703 
G01 X-39.4809 Y1.4416 
G01 X-39.4514 Y1.4322 
G01 X-39.4417 Y1.4322 
G01 X-39.4089 Y1.4186 
G01 X-39.3750 Y1.4078 
G01 X-39.3676 Y1.4015 
G01 X-39.3390 Y1.3896 
G01 X-39.3114 Y1.4038 
G01 X-39.3046 Y1.4107 
G01 X-39.2717 Y1.4243 
G01 X-39.2401 Y1.4406 
G01 X-39.2328 Y1.4412 
G01 X-39.2095 Y1.4537 
G01 X-39.1977 Y1.4549 
G01 X-39.1868 Y1.4595 
G01 X-39.1534 Y1.4595 
G01 X-39.1200 Y1.4628 
G01 X-39.1087 Y1.4595 
G01 X-39.0969 Y1.4595 
G01 X-39.0660 Y1.4466 
G01 X-39.0339 Y1.4370 
G01 X-39.0248 Y1.4296 
G01 X-39.0139 Y1.4250 
G01 X-38.9902 Y1.4014 
G01 X-38.6206 Y1.1000 
G01 X-38.6098 Y1.0955 
G01 X-38.5861 Y1.0719 
G01 X-38.5601 Y1.0507 
G01 X-38.5545 Y1.0403 
G01 X-38.5323 Y1.0181 
G01 X-38.5011 Y1.0213 
G01 X-38.4902 Y1.0258 
G01 X-38.4567 Y1.0258 
G01 X-38.4234 Y1.0292 
G01 X-38.4121 Y1.0258 
G01 X-38.3807 Y1.0258 
G01 X-38.3608 Y1.0501 
G01 X-38.3563 Y1.0610 
G01 X-38.3327 Y1.0847 
G01 X-38.3115 Y1.1107 
G01 X-38.3011 Y1.1163 
G01 X-37.9463 Y1.4711 
G01 X-37.9407 Y1.4815 
G01 X-37.9147 Y1.5027 
G01 X-37.8910 Y1.5263 
G01 X-37.8801 Y1.5308 
G01 X-37.8558 Y1.5507 
G01 X-37.8558 Y1.5821 
G01 X-37.8592 Y1.5934 
G01 X-37.8558 Y1.6267 
G01 X-37.8558 Y1.6602 
G01 X-37.8513 Y1.6711 
G01 X-37.8481 Y1.7023 
G01 X-37.8703 Y1.7245 
G01 X-37.8807 Y1.7301 
G01 X-37.9018 Y1.7561 
G01 X-37.9255 Y1.7798 
G01 X-37.9300 Y1.7907 
G01 X-38.2210 Y2.1475 
G01 X-38.2394 Y2.1631 
G01 X-38.2492 Y2.1820 
G01 X-38.2626 Y2.1985 
G01 X-38.2695 Y2.2216 
G01 X-38.2806 Y2.2430 
G01 X-38.2823 Y2.2642 
G01 X-38.2885 Y2.2847 
G01 X-38.2860 Y2.3086 
G01 X-38.2880 Y2.3326 
G01 X-38.2815 Y2.3529 
G01 X-38.2794 Y2.3741 
G01 X-38.2680 Y2.3953 
G01 X-38.2645 Y2.4061 
G01 X-38.2629 Y2.4252 
G01 X-38.2509 Y2.4485 
G01 X-38.2430 Y2.4734 
G01 X-38.2305 Y2.4881 
G01 X-38.2254 Y2.4981 
G01 X-38.2185 Y2.5212 
G01 X-38.2050 Y2.5377 
G01 X-38.1953 Y2.5566 
G01 X-38.1769 Y2.5721 
G01 X-38.1616 Y2.5908 
G01 X-38.1429 Y2.6009 
G01 X-38.1266 Y2.6147 
G01 X-38.1037 Y2.6220 
G01 X-38.0825 Y2.6334 
G01 X-38.0613 Y2.6356 
G01 X-38.0410 Y2.6421 
G01 X-38.0170 Y2.6401 
G01 X-37.5589 Y2.6866 
G01 X-37.5480 Y2.6911 
G01 X-37.5145 Y2.6911 
G01 X-37.4812 Y2.6945 
G01 X-37.4699 Y2.6911 
G01 X-37.4385 Y2.6911 
G01 X-37.4187 Y2.7154 
G01 X-37.4142 Y2.7263 
G01 X-37.3905 Y2.7500 
G01 X-37.3693 Y2.7760 
G01 X-37.3589 Y2.7816 
G01 X-37.3073 Y2.8332 
G01 X-37.2242 Y2.8676 
G01 X-37.1798 Y2.8676 
G01 X-37.1343 Y2.8676 
G01 X-36.3710 Y2.8676 
G01 X-36.2879 Y2.8332 
G01 X-36.2243 Y2.7696 
G01 X-34.4173 Y0.9626 
G01 X-21.1452 Y0.9626 
G01 X-19.2746 Y2.8332 
G01 X-19.1915 Y2.8676 
G01 X-8.1277 Y2.8676 
G01 X-7.8496 Y3.1456 
G01 X-5.4076 Y5.5877 
G01 X-5.4076 Y7.9572 
G01 X-5.3732 Y8.0403 
G01 X-5.3096 Y8.1038 
G01 X-5.2266 Y8.1382 
G01 X-5.2135 Y8.1382 
G01 X-4.9325 Y8.2546 
G01 X-4.7174 Y8.4697 
G01 X-4.6010 Y8.7507 
G01 X-4.6010 Y9.0549 
G01 X-4.7174 Y9.3359 
G01 X-4.8441 Y9.4626 
G01 X-4.8506 Y9.4658 
G01 X-4.8757 Y9.4942 
G01 X-4.9026 Y9.5211 
G01 X-4.9053 Y9.5278 
G01 X-4.9101 Y9.5332 
G01 X-4.9225 Y9.5691 
G01 X-4.9370 Y9.6042 
G01 X-4.9370 Y9.6114 
G01 X-4.9393 Y9.6182 
G01 X-4.9370 Y9.6561 
G01 X-4.9370 Y9.6941 
G01 X-4.9342 Y9.7007 
G01 X-4.9338 Y9.7079 
G01 X-4.9171 Y9.7421 
G01 X-4.9026 Y9.7772 
G01 X-4.8975 Y9.7822 
G01 X-4.8943 Y9.7887 
G01 X-4.8659 Y9.8139 
G01 X-4.8390 Y9.8407 
G01 X-4.8324 Y9.8435 
G01 X-3.7629 Y10.7886 
G01 X-3.7361 Y10.8154 
G01 X-3.7294 Y10.8182 
G01 X-3.7241 Y10.8229 
G01 X-3.7020 Y10.8305 
G01 X-3.6310 Y10.9015 
G01 X-3.6278 Y10.9080 
G01 X-3.5993 Y10.9332 
G01 X-3.5725 Y10.9600 
G01 X-3.5658 Y10.9628 
G01 X-3.5026 Y11.0187 
G00 Z2.0000 
G00 X-3.5361 Y11.0235 
G01 Z-0.0500 F254.00 
G01 X-3.5529 Y10.9981 F508.00 
G01 X-3.5682 Y10.9717 
G01 X-3.5749 Y10.9650 
G01 X-3.5801 Y10.9571 
G01 X-3.6029 Y10.9370 
G01 X-3.6244 Y10.9154 
G01 X-3.6326 Y10.9107 
G01 X-5.0484 Y9.6595 
G01 X-4.7757 Y9.3869 
G01 X-4.6926 Y9.2625 
G01 X-4.6354 Y9.1243 
G01 X-4.6062 Y8.9776 
G01 X-4.6062 Y8.8280 
G01 X-4.6354 Y8.6813 
G01 X-4.6926 Y8.5431 
G01 X-4.7757 Y8.4187 
G01 X-4.8815 Y8.3130 
G01 X-5.0059 Y8.2299 
G01 X-5.1441 Y8.1726 
G01 X-5.2908 Y8.1434 
G01 X-5.4128 Y8.1434 
G01 X-5.4128 Y5.6752 
G01 X-5.4334 Y5.5984 
G01 X-5.4732 Y5.5294 
G01 X-8.0132 Y2.9894 
G01 X-8.0694 Y2.9332 
G01 X-8.1384 Y2.8934 
G01 X-8.2152 Y2.8728 
G01 X-19.2423 Y2.8728 
G01 X-21.0869 Y1.0282 
G01 X-21.1559 Y0.9884 
G01 X-21.2327 Y0.9678 
G01 X-34.3298 Y0.9678 
G01 X-34.4066 Y0.9884 
G01 X-34.4756 Y1.0282 
G01 X-34.5318 Y1.0844 
G01 X-36.3202 Y2.8728 
G01 X-37.3490 Y2.8728 
G01 X-37.3470 Y2.8534 
G01 X-37.3496 Y2.8448 
G01 X-37.3496 Y2.8357 
G01 X-37.3595 Y2.8119 
G01 X-37.3669 Y2.7871 
G01 X-37.3726 Y2.7801 
G01 X-37.3761 Y2.7717 
G01 X-37.3943 Y2.7535 
G01 X-37.4106 Y2.7335 
G01 X-37.4186 Y2.7292 
G01 X-37.4250 Y2.7228 
G01 X-37.4489 Y2.7129 
G01 X-37.4716 Y2.7007 
G01 X-37.4806 Y2.6998 
G01 X-37.4890 Y2.6963 
G01 X-37.5148 Y2.6963 
G01 X-38.1993 Y2.6268 
G01 X-38.2453 Y2.4831 
G01 X-38.2465 Y2.4684 
G01 X-38.2558 Y2.4505 
G01 X-38.2619 Y2.4313 
G01 X-38.2715 Y2.4200 
G01 X-38.3405 Y2.2858 
G01 X-37.9057 Y1.7526 
G01 X-37.8875 Y1.7344 
G01 X-37.8840 Y1.7260 
G01 X-37.8783 Y1.7189 
G01 X-37.8709 Y1.6942 
G01 X-37.8610 Y1.6704 
G01 X-37.8610 Y1.6613 
G01 X-37.8584 Y1.6526 
G01 X-37.8610 Y1.6270 
G01 X-37.8610 Y1.6012 
G01 X-37.8645 Y1.5928 
G01 X-37.8654 Y1.5838 
G01 X-37.8776 Y1.5611 
G01 X-37.8875 Y1.5372 
G01 X-37.8939 Y1.5308 
G01 X-37.8982 Y1.5228 
G01 X-37.9182 Y1.5065 
G01 X-38.3365 Y1.0882 
G01 X-38.3528 Y1.0682 
G01 X-38.3608 Y1.0639 
G01 X-38.3672 Y1.0575 
G01 X-38.3910 Y1.0476 
G01 X-38.4138 Y1.0354 
G01 X-38.4228 Y1.0345 
G01 X-38.4312 Y1.0310 
G01 X-38.4570 Y1.0310 
G01 X-38.4826 Y1.0284 
G01 X-38.4913 Y1.0310 
G01 X-38.5004 Y1.0310 
G01 X-38.5242 Y1.0409 
G01 X-38.5489 Y1.0483 
G01 X-38.5560 Y1.0540 
G01 X-38.5644 Y1.0575 
G01 X-38.5826 Y1.0757 
G01 X-39.1158 Y1.5105 
G01 X-39.2434 Y1.4448 
G01 X-39.2486 Y1.4395 
G01 X-39.2739 Y1.4290 
G01 X-39.2982 Y1.4165 
G01 X-39.3057 Y1.4159 
G01 X-39.3126 Y1.4130 
G01 X-39.3400 Y1.4130 
G01 X-39.3672 Y1.4107 
G01 X-39.3743 Y1.4130 
G01 X-39.3818 Y1.4130 
G01 X-39.4071 Y1.4235 
G01 X-39.4332 Y1.4318 
G01 X-39.4389 Y1.4366 
G01 X-39.4458 Y1.4395 
G01 X-39.4651 Y1.4588 
G01 X-39.4860 Y1.4765 
G01 X-39.4894 Y1.4832 
G01 X-39.4947 Y1.4884 
G01 X-39.5052 Y1.5137 
G01 X-39.5177 Y1.5380 
G01 X-39.5183 Y1.5455 
G01 X-39.8635 Y2.3787 
G01 X-39.8758 Y2.4017 
G01 X-39.8766 Y2.4105 
G01 X-39.8800 Y2.4186 
G01 X-39.8800 Y2.4447 
G01 X-39.8826 Y2.4706 
G01 X-39.8800 Y2.4790 
G01 X-39.8800 Y2.4878 
G01 X-39.8700 Y2.5119 
G01 X-39.8625 Y2.5368 
G01 X-39.8569 Y2.5436 
G01 X-39.8535 Y2.5518 
G01 X-39.8351 Y2.5702 
G01 X-39.8185 Y2.5903 
G01 X-39.8108 Y2.5945 
G01 X-39.8046 Y2.6007 
G01 X-39.7805 Y2.6107 
G01 X-39.6681 Y2.6708 
G01 X-39.5761 Y2.7462 
G01 X-39.5007 Y2.8381 
G01 X-39.4447 Y2.9429 
G01 X-39.4102 Y3.0567 
G01 X-39.3986 Y3.1746 
G01 X-39.4114 Y3.2989 
G01 X-39.4492 Y3.4175 
G01 X-39.5105 Y3.5259 
G01 X-39.5925 Y3.6195 
G01 X-39.6920 Y3.6944 
G01 X-39.8047 Y3.7473 
G01 X-39.9258 Y3.7762 
G01 X-40.0503 Y3.7797 
G01 X-40.1728 Y3.7577 
G01 X-40.2883 Y3.7111 
G01 X-40.3918 Y3.6419 
G01 X-40.4790 Y3.5531 
G01 X-40.5463 Y3.4483 
G01 X-40.5907 Y3.3319 
G01 X-40.6104 Y3.2090 
G01 X-40.6046 Y3.0847 
G01 X-40.5735 Y2.9641 
G01 X-40.5184 Y2.8524 
G01 X-40.4417 Y2.7544 
G01 X-40.3466 Y2.6740 
G01 X-40.2291 Y2.6105 
G01 X-40.2054 Y2.6007 
G01 X-40.1989 Y2.5942 
G01 X-40.1908 Y2.5898 
G01 X-40.1746 Y2.5699 
G01 X-40.1565 Y2.5518 
G01 X-40.1530 Y2.5432 
G01 X-40.1471 Y2.5361 
G01 X-40.1398 Y2.5115 
G01 X-40.1300 Y2.4878 
G01 X-40.1300 Y2.4786 
G01 X-40.1274 Y2.4698 
G01 X-40.1300 Y2.4442 
G01 X-40.1300 Y2.4186 
G01 X-40.1335 Y2.4101 
G01 X-40.1345 Y2.4009 
G01 X-40.1467 Y2.3783 
G01 X-40.4917 Y1.5455 
G01 X-40.4923 Y1.5380 
G01 X-40.5048 Y1.5137 
G01 X-40.5153 Y1.4884 
G01 X-40.5206 Y1.4832 
G01 X-40.5240 Y1.4765 
G01 X-40.5449 Y1.4588 
G01 X-40.5642 Y1.4395 
G01 X-40.5711 Y1.4366 
G01 X-40.5768 Y1.4318 
G01 X-40.6029 Y1.4235 
G01 X-40.6282 Y1.4130 
G01 X-40.6357 Y1.4130 
G01 X-40.6428 Y1.4107 
G01 X-40.6701 Y1.4130 
G01 X-40.6974 Y1.4130 
G01 X-40.7043 Y1.4159 
G01 X-40.7118 Y1.4165 
G01 X-40.7361 Y1.4290 
G01 X-40.7614 Y1.4395 
G01 X-40.7666 Y1.4448 
G01 X-40.8942 Y1.5105 
G01 X-41.4274 Y1.0757 
G01 X-41.4456 Y1.0575 
G01 X-41.4540 Y1.0540 
G01 X-41.4611 Y1.0483 
G01 X-41.4858 Y1.0409 
G01 X-41.5096 Y1.0310 
G01 X-41.5187 Y1.0310 
G01 X-41.5274 Y1.0284 
G01 X-41.5530 Y1.0310 
G01 X-41.5788 Y1.0310 
G01 X-41.5872 Y1.0345 
G01 X-41.5962 Y1.0354 
G01 X-41.6189 Y1.0476 
G01 X-41.6428 Y1.0575 
G01 X-41.6492 Y1.0639 
G01 X-41.6572 Y1.0682 
G01 X-41.6735 Y1.0882 
G01 X-42.0918 Y1.5065 
G01 X-42.1118 Y1.5228 
G01 X-42.1161 Y1.5308 
G01 X-42.1225 Y1.5372 
G01 X-42.1324 Y1.5611 
G01 X-42.1446 Y1.5838 
G01 X-42.1455 Y1.5928 
G01 X-42.1490 Y1.6012 
G01 X-42.1490 Y1.6270 
G01 X-42.1516 Y1.6526 
G01 X-42.1490 Y1.6613 
G01 X-42.1490 Y1.6704 
G01 X-42.1391 Y1.6942 
G01 X-42.1317 Y1.7189 
G01 X-42.1260 Y1.7260 
G01 X-42.1225 Y1.7344 
G01 X-42.1043 Y1.7526 
G01 X-41.6695 Y2.2858 
G01 X-41.7385 Y2.4200 
G01 X-41.7481 Y2.4313 
G01 X-41.7542 Y2.4505 
G01 X-41.7635 Y2.4684 
G01 X-41.7647 Y2.4831 
G01 X-41.8107 Y2.6268 
G01 X-42.4952 Y2.6963 
G01 X-42.5210 Y2.6963 
G01 X-42.5294 Y2.6998 
G01 X-42.5384 Y2.7007 
G01 X-42.5611 Y2.7129 
G01 X-42.5850 Y2.7228 
G01 X-42.5914 Y2.7292 
G01 X-42.5994 Y2.7335 
G01 X-42.6157 Y2.7535 
G01 X-42.6339 Y2.7717 
G01 X-42.6374 Y2.7801 
G01 X-42.6431 Y2.7871 
G01 X-42.6505 Y2.8119 
G01 X-42.6604 Y2.8357 
G01 X-42.6604 Y2.8448 
G01 X-42.6630 Y2.8534 
G01 X-42.6604 Y2.8791 
G01 X-42.6604 Y3.4709 
G01 X-42.6630 Y3.4966 
G01 X-42.6604 Y3.5052 
G01 X-42.6604 Y3.5143 
G01 X-42.6505 Y3.5381 
G01 X-42.6431 Y3.5629 
G01 X-42.6374 Y3.5699 
G01 X-42.6339 Y3.5783 
G01 X-42.6157 Y3.5965 
G01 X-42.5994 Y3.6165 
G01 X-42.5914 Y3.6208 
G01 X-42.5850 Y3.6272 
G01 X-42.5611 Y3.6371 
G01 X-42.5384 Y3.6493 
G01 X-42.5294 Y3.6502 
G01 X-42.5210 Y3.6537 
G01 X-42.4952 Y3.6537 
G01 X-41.8107 Y3.7232 
G01 X-41.7647 Y3.8669 
G01 X-41.7635 Y3.8816 
G01 X-41.7542 Y3.8995 
G01 X-41.7481 Y3.9187 
G01 X-41.7385 Y3.9300 
G01 X-41.6695 Y4.0642 
G01 X-42.1043 Y4.5974 
G01 X-42.1225 Y4.6156 
G01 X-42.1260 Y4.6240 
G01 X-42.1317 Y4.6311 
G01 X-42.1391 Y4.6558 
G01 X-42.1490 Y4.6796 
G01 X-42.1490 Y4.6887 
G01 X-42.1516 Y4.6974 
G01 X-42.1490 Y4.7230 
G01 X-42.1490 Y4.7488 
G01 X-42.1455 Y4.7572 
G01 X-42.1446 Y4.7662 
G01 X-42.1324 Y4.7890 
G01 X-42.1225 Y4.8128 
G01 X-42.1161 Y4.8192 
G01 X-42.1118 Y4.8272 
G01 X-42.0968 Y4.8394 
G01 X-42.9931 Y5.7357 
G01 X-43.9531 Y4.7757 
G01 X-44.0774 Y4.6926 
G01 X-44.2156 Y4.6354 
G01 X-44.3624 Y4.6062 
G01 X-44.5120 Y4.6062 
G01 X-44.6587 Y4.6354 
G01 X-44.7969 Y4.6926 
G01 X-44.9213 Y4.7757 
G01 X-45.0270 Y4.8815 
G01 X-45.1101 Y5.0059 
G01 X-45.1674 Y5.1441 
G01 X-45.1966 Y5.2908 
G01 X-45.1966 Y5.4404 
G01 X-45.1674 Y5.5871 
G01 X-45.1101 Y5.7253 
G01 X-45.0270 Y5.8497 
G01 X-43.9873 Y6.8894 
G01 X-43.8629 Y6.9725 
G01 X-43.7247 Y7.0298 
G01 X-43.5780 Y7.0589 
G01 X-43.4284 Y7.0589 
G01 X-43.2817 Y7.0298 
G01 X-43.1435 Y6.9725 
G01 X-43.0191 Y6.8894 
G01 X-42.9134 Y6.7836 
G01 X-42.8302 Y6.6593 
G01 X-42.7730 Y6.5211 
G01 X-42.7438 Y6.3743 
G01 X-42.7438 Y6.3412 
G01 X-41.6694 Y5.2668 
G01 X-41.6572 Y5.2818 
G01 X-41.6492 Y5.2861 
G01 X-41.6428 Y5.2925 
G01 X-41.6189 Y5.3024 
G01 X-41.5962 Y5.3146 
G01 X-41.5872 Y5.3155 
G01 X-41.5788 Y5.3190 
G01 X-41.5530 Y5.3190 
G01 X-41.5274 Y5.3216 
G01 X-41.5187 Y5.3190 
G01 X-41.5096 Y5.3190 
G01 X-41.4858 Y5.3091 
G01 X-41.4611 Y5.3017 
G01 X-41.4540 Y5.2960 
G01 X-41.4456 Y5.2925 
G01 X-41.4274 Y5.2743 
G01 X-40.8942 Y4.8395 
G01 X-40.7600 Y4.9085 
G01 X-40.7487 Y4.9181 
G01 X-40.7295 Y4.9242 
G01 X-40.7116 Y4.9335 
G01 X-40.6969 Y4.9347 
G01 X-40.5532 Y4.9807 
G01 X-40.4837 Y5.6652 
G01 X-40.4837 Y5.6910 
G01 X-40.4802 Y5.6994 
G01 X-40.4793 Y5.7084 
G01 X-40.4671 Y5.7311 
G01 X-40.4572 Y5.7550 
G01 X-40.4508 Y5.7614 
G01 X-40.4465 Y5.7694 
G01 X-40.4265 Y5.7857 
G01 X-40.4083 Y5.8039 
G01 X-40.3999 Y5.8074 
G01 X-40.3929 Y5.8131 
G01 X-40.3681 Y5.8205 
G01 X-40.3443 Y5.8304 
G01 X-40.3352 Y5.8304 
G01 X-40.3266 Y5.8330 
G01 X-40.3009 Y5.8304 
G01 X-39.7091 Y5.8304 
G01 X-39.6834 Y5.8330 
G01 X-39.6748 Y5.8304 
G01 X-39.6657 Y5.8304 
G01 X-39.6419 Y5.8205 
G01 X-39.6171 Y5.8131 
G01 X-39.6101 Y5.8074 
G01 X-39.6017 Y5.8039 
G01 X-39.5835 Y5.7857 
G01 X-39.5635 Y5.7694 
G01 X-39.5592 Y5.7614 
G01 X-39.5528 Y5.7550 
G01 X-39.5429 Y5.7311 
G01 X-39.5307 Y5.7084 
G01 X-39.5298 Y5.6994 
G01 X-39.5263 Y5.6910 
G01 X-39.5263 Y5.6652 
G01 X-39.4568 Y4.9807 
G01 X-39.3131 Y4.9347 
G01 X-39.2984 Y4.9335 
G01 X-39.2805 Y4.9242 
G01 X-39.2613 Y4.9181 
G01 X-39.2500 Y4.9085 
G01 X-39.1158 Y4.8395 
G01 X-38.5826 Y5.2743 
G01 X-38.5644 Y5.2925 
G01 X-38.5560 Y5.2960 
G01 X-38.5489 Y5.3017 
G01 X-38.5242 Y5.3091 
G01 X-38.5004 Y5.3190 
G01 X-38.4913 Y5.3190 
G01 X-38.4826 Y5.3216 
G01 X-38.4570 Y5.3190 
G01 X-38.4312 Y5.3190 
G01 X-38.4228 Y5.3155 
G01 X-38.4138 Y5.3146 
G01 X-38.3911 Y5.3024 
G01 X-38.3672 Y5.2925 
G01 X-38.3608 Y5.2861 
G01 X-38.3528 Y5.2818 
G01 X-38.3365 Y5.2618 
G01 X-37.9182 Y4.8435 
G01 X-37.8982 Y4.8272 
G01 X-37.8939 Y4.8192 
G01 X-37.8875 Y4.8128 
G01 X-37.8776 Y4.7889 
G01 X-37.8654 Y4.7662 
G01 X-37.8645 Y4.7572 
G01 X-37.8610 Y4.7488 
G01 X-37.8610 Y4.7230 
G01 X-37.8584 Y4.6974 
G01 X-37.8610 Y4.6887 
G01 X-37.8610 Y4.6796 
G01 X-37.8709 Y4.6558 
G01 X-37.8783 Y4.6311 
G01 X-37.8840 Y4.6240 
G01 X-37.8875 Y4.6156 
G01 X-37.9057 Y4.5974 
G01 X-38.3405 Y4.0642 
G01 X-38.2715 Y3.9300 
G01 X-38.2619 Y3.9187 
G01 X-38.2558 Y3.8995 
G01 X-38.2465 Y3.8816 
G01 X-38.2453 Y3.8669 
G01 X-38.1993 Y3.7232 
G01 X-37.5148 Y3.6537 
G01 X-37.4890 Y3.6537 
G01 X-37.4806 Y3.6502 
G01 X-37.4716 Y3.6493 
G01 X-37.4489 Y3.6371 
G01 X-37.4250 Y3.6272 
G01 X-37.4186 Y3.6208 
G01 X-37.4106 Y3.6165 
G01 X-37.3943 Y3.5965 
G01 X-37.3761 Y3.5783 
G01 X-37.3726 Y3.5699 
G01 X-37.3669 Y3.5629 
G01 X-37.3595 Y3.5381 
G01 X-37.3496 Y3.5143 
G01 X-37.3496 Y3.5052 
G01 X-37.3470 Y3.4966 
G01 X-37.3490 Y3.4772 
G01 X-36.1552 Y3.4772 
G01 X-36.0784 Y3.4566 
G01 X-36.0094 Y3.4168 
G01 X-34.1648 Y1.5722 
G01 X-21.3977 Y1.5722 
G01 X-19.5531 Y3.4168 
G01 X-19.4841 Y3.4566 
G01 X-19.4073 Y3.4772 
G01 X-8.3802 Y3.4772 
G01 X-6.0172 Y5.8402 
G01 X-6.0172 Y8.4805 
G01 X-6.8894 Y9.3527 
G01 X-6.9725 Y9.4771 
G01 X-7.0298 Y9.6153 
G01 X-7.0589 Y9.7620 
G01 X-7.0589 Y9.9116 
G01 X-7.0298 Y10.0583 
G01 X-6.9725 Y10.1965 
G01 X-6.8894 Y10.3209 
G01 X-6.7836 Y10.4266 
G01 X-6.6593 Y10.5097 
G01 X-6.5211 Y10.5670 
G01 X-6.3743 Y10.5962 
G01 X-6.2248 Y10.5962 
G01 X-6.0780 Y10.5670 
G01 X-5.9398 Y10.5097 
G01 X-5.8155 Y10.4266 
G01 X-5.4765 Y10.0877 
G01 X-4.1122 Y11.2935 
G01 X-4.1122 Y18.7723 
G01 X-4.0916 Y18.8491 
G01 X-4.0518 Y18.9181 
G01 X-3.9956 Y18.9743 
G01 X-1.5722 Y21.3977 
G01 X-1.5722 Y32.2598 
G01 X-2.7818 Y33.4694 
G01 X-2.8216 Y33.5384 
G01 X-2.8422 Y33.6152 
G01 X-2.8422 Y44.3248 
G01 X-6.4752 Y47.9578 
G01 X-8.1434 Y47.9578 
G01 X-8.1434 Y47.8996 
G01 X-8.1726 Y47.7529 
G01 X-8.2299 Y47.6147 
G01 X-8.3130 Y47.4903 
G01 X-9.3527 Y46.4506 
G01 X-9.4771 Y46.3675 
G01 X-9.6153 Y46.3102 
G01 X-9.7620 Y46.2811 
G01 X-9.9116 Y46.2811 
G01 X-10.0583 Y46.3102 
G01 X-10.1965 Y46.3675 
G01 X-10.3209 Y46.4506 
G01 X-10.4266 Y46.5564 
G01 X-10.5097 Y46.6807 
G01 X-10.5670 Y46.8189 
G01 X-10.5962 Y46.9657 
G01 X-10.5962 Y47.1152 
G01 X-10.5670 Y47.2620 
G01 X-10.5097 Y47.4002 
G01 X-10.4266 Y47.5245 
G01 X-10.1205 Y47.8307 
G01 X-13.4226 Y51.1328 
G01 X-32.2598 Y51.1328 
G01 X-33.4694 Y49.9232 
G01 X-33.5384 Y49.8834 
G01 X-33.6152 Y49.8628 
G01 X-44.9598 Y49.8628 
G01 X-47.9578 Y46.8648 
G01 X-47.9578 Y45.1966 
G01 X-47.8996 Y45.1966 
G01 X-47.7529 Y45.1674 
G01 X-47.6147 Y45.1101 
G01 X-47.4903 Y45.0270 
G01 X-46.4506 Y43.9873 
G01 X-46.3675 Y43.8629 
G01 X-46.3102 Y43.7247 
G01 X-46.2811 Y43.5780 
G01 X-46.2811 Y43.4284 
G01 X-46.3102 Y43.2817 
G01 X-46.3341 Y43.2242 
G01 X-45.4782 Y42.3683 
G01 X-45.4384 Y42.2994 
G01 X-45.4178 Y42.2226 
G01 X-45.4178 Y34.4152 
G01 X-38.6098 Y27.6072 
G01 X-35.4558 Y27.6072 
G01 X-35.4558 Y27.6549 
G01 X-35.4407 Y27.6913 
G01 X-35.4129 Y27.7191 
G01 X-35.3765 Y27.7342 
G01 X-33.3051 Y27.7342 
G01 X-33.2687 Y27.7191 
G01 X-33.2409 Y27.6913 
G01 X-33.2258 Y27.6549 
G01 X-33.2258 Y26.9551 
G01 X-33.2409 Y26.9187 
G01 X-33.2687 Y26.8909 
G01 X-33.3051 Y26.8758 
G01 X-35.3765 Y26.8758 
G01 X-35.4129 Y26.8909 
G01 X-35.4407 Y26.9187 
G01 X-35.4558 Y26.9551 
G01 X-35.4558 Y27.0028 
G01 X-38.7748 Y27.0028 
G01 X-38.8516 Y27.0234 
G01 X-38.9206 Y27.0632 
G01 X-45.9056 Y34.0482 
G01 X-45.9618 Y34.1044 
G01 X-46.0016 Y34.1734 
G01 X-46.0222 Y34.2502 
G01 X-46.0222 Y42.0576 
G01 X-46.7614 Y42.7968 
G01 X-46.8189 Y42.7730 
G01 X-46.9657 Y42.7438 
G01 X-47.1152 Y42.7438 
G01 X-47.2620 Y42.7730 
G01 X-47.4002 Y42.8302 
G01 X-47.5245 Y42.9134 
G01 X-48.5643 Y43.9531 
G01 X-48.6474 Y44.0774 
G01 X-48.7046 Y44.2156 
G01 X-48.7338 Y44.3624 
G01 X-48.7338 Y44.5120 
G01 X-48.7046 Y44.6587 
G01 X-48.6474 Y44.7969 
G01 X-48.5643 Y44.9213 
G01 X-48.5622 Y47.0298 
G01 X-48.5416 Y47.1066 
G01 X-48.5018 Y47.1756 
G01 X-45.3268 Y50.3506 
G01 X-45.2706 Y50.4068 
G01 X-45.2016 Y50.4466 
G01 X-45.1248 Y50.4672 
G01 X-33.7802 Y50.4672 
G01 X-32.5706 Y51.6768 
G01 X-32.5016 Y51.7166 
G01 X-32.4248 Y51.7372 
G01 X-13.2576 Y51.7372 
G01 X-13.1807 Y51.7166 
G01 X-13.1118 Y51.6768 
G01 X-9.6931 Y48.2581 
G01 X-9.3869 Y48.5643 
G01 X-9.2625 Y48.6474 
G01 X-9.1243 Y48.7046 
G01 X-8.9776 Y48.7338 
G01 X-8.8280 Y48.7338 
G01 X-8.6813 Y48.7046 
G01 X-8.5431 Y48.6474 
G01 X-8.4187 Y48.5643 
G01 X-6.3898 Y48.5622 
G01 X-6.3102 Y48.5622 
G01 X-6.2334 Y48.5416 
G01 X-6.1644 Y48.5018 
G01 X-2.3544 Y44.6918 
G01 X-2.2982 Y44.6356 
G01 X-2.2584 Y44.5666 
G01 X-2.2378 Y44.4898 
G01 X-2.2378 Y33.7802 
G01 X-1.0844 Y32.6268 
G01 X-1.0282 Y32.5706 
G01 X-0.9884 Y32.5016 
G01 X-0.9678 Y32.4248 
G01 X-0.9678 Y21.1951 
G01 X-0.9884 Y21.1182 
G01 X-1.0282 Y21.0493 
G01 X-1.0844 Y20.9931 
G01 X-1.1534 Y20.9533 
G01 X-1.1650 Y20.9502 
G01 X-3.5078 Y18.6073 
G01 X-3.5078 Y11.1876 
G01 X-3.5059 Y11.1783 
G01 X-3.5078 Y11.1479 
G01 X-3.5078 Y11.1174 
G01 X-3.5102 Y11.1083 
G01 X-3.5108 Y11.0989 
G01 X-3.5205 Y11.0700 
G01 X-3.5284 Y11.0406 
G01 X-3.5331 Y11.0324 
G01 X-3.5361 Y11.0235 
G00 Z2.0000 
G00 X-4.8382 Y14.7369 
G01 Z-0.0500 F254.00 
G01 X-5.7907 Y13.7844 F508.00 
G01 X-5.8469 Y13.7282 
G01 X-5.9159 Y13.6884 
G01 X-5.9927 Y13.6678 
G01 X-7.4948 Y13.6678 
G01 X-11.7628 Y9.3998 
G01 X-11.7628 Y9.1229 
G01 X-11.6744 Y9.2113 
G01 X-11.6380 Y9.2264 
G01 X-11.5986 Y9.2264 
G01 X-11.5622 Y9.2113 
G01 X-10.4737 Y8.1228 
G01 X-10.4586 Y8.0864 
G01 X-10.4586 Y8.0470 
G01 X-10.4737 Y8.0106 
G01 X-10.7954 Y7.6889 
G01 X-10.1141 Y7.0076 
G01 X-10.0566 Y7.0315 
G01 X-9.9099 Y7.0606 
G01 X-9.7603 Y7.0606 
G01 X-9.6136 Y7.0315 
G01 X-9.4754 Y6.9742 
G01 X-9.3510 Y6.8911 
G01 X-8.3113 Y5.8514 
G01 X-8.2282 Y5.7270 
G01 X-8.1709 Y5.5888 
G01 X-8.1417 Y5.4421 
G01 X-8.1417 Y5.2925 
G01 X-8.1709 Y5.1458 
G01 X-8.2282 Y5.0076 
G01 X-8.3113 Y4.8832 
G01 X-8.4170 Y4.7774 
G01 X-8.5414 Y4.6943 
G01 X-8.6796 Y4.6371 
G01 X-8.8263 Y4.6079 
G01 X-8.9759 Y4.6079 
G01 X-9.1226 Y4.6371 
G01 X-9.2608 Y4.6943 
G01 X-9.3852 Y4.7774 
G01 X-10.4249 Y5.8172 
G01 X-10.5081 Y5.9415 
G01 X-10.5653 Y6.0797 
G01 X-10.5945 Y6.2264 
G01 X-10.5945 Y6.3760 
G01 X-10.5653 Y6.5228 
G01 X-10.5415 Y6.5803 
G01 X-11.2228 Y7.2616 
G01 X-11.3669 Y7.1174 
G01 X-11.4033 Y7.1024 
G01 X-11.4427 Y7.1024 
G01 X-11.4791 Y7.1174 
G01 X-12.3144 Y7.9528 
G01 X-16.0673 Y7.9528 
G01 X-21.6657 Y2.3544 
G01 X-21.7219 Y2.2982 
G01 X-21.7909 Y2.2584 
G01 X-21.8677 Y2.2378 
G01 X-33.3773 Y2.2378 
G01 X-33.4541 Y2.2584 
G01 X-33.5231 Y2.2982 
G01 X-37.9077 Y6.6828 
G01 X-41.9498 Y6.6828 
G01 X-42.0266 Y6.7034 
G01 X-42.0956 Y6.7432 
G01 X-44.5752 Y9.2228 
G01 X-46.5771 Y9.2228 
G01 X-47.4886 Y8.3113 
G01 X-47.6130 Y8.2282 
G01 X-47.7512 Y8.1709 
G01 X-47.8979 Y8.1417 
G01 X-48.0475 Y8.1417 
G01 X-48.1942 Y8.1709 
G01 X-48.3324 Y8.2282 
G01 X-48.4568 Y8.3113 
G01 X-48.5626 Y8.4170 
G01 X-48.6457 Y8.5414 
G01 X-48.7029 Y8.6796 
G01 X-48.7321 Y8.8263 
G01 X-48.7321 Y8.9759 
G01 X-48.7029 Y9.1226 
G01 X-48.6457 Y9.2608 
G01 X-48.5626 Y9.3852 
G01 X-47.6026 Y10.3452 
G01 X-48.0389 Y10.7816 
G01 X-48.0520 Y10.7761 
G01 X-48.0914 Y10.7761 
G01 X-48.1278 Y10.7912 
G01 X-49.2163 Y11.8797 
G01 X-49.2314 Y11.9161 
G01 X-49.2314 Y11.9555 
G01 X-49.2163 Y11.9919 
G01 X-48.3231 Y12.8851 
G01 X-48.2867 Y12.9001 
G01 X-48.2473 Y12.9001 
G01 X-48.2109 Y12.8851 
G01 X-47.1224 Y11.7966 
G01 X-47.1074 Y11.7602 
G01 X-47.1074 Y11.7208 
G01 X-47.1224 Y11.6844 
G01 X-47.6047 Y11.2021 
G01 X-46.9971 Y10.5945 
G01 X-46.9640 Y10.5945 
G01 X-46.8172 Y10.5653 
G01 X-46.6790 Y10.5081 
G01 X-46.5547 Y10.4249 
G01 X-46.4489 Y10.3192 
G01 X-46.3658 Y10.1948 
G01 X-46.3085 Y10.0566 
G01 X-46.2794 Y9.9099 
G01 X-46.2794 Y9.8272 
G01 X-44.4102 Y9.8272 
G01 X-44.3334 Y9.8066 
G01 X-44.2644 Y9.7668 
G01 X-44.2082 Y9.7106 
G01 X-41.7848 Y7.2872 
G01 X-37.7427 Y7.2872 
G01 X-37.6659 Y7.2666 
G01 X-37.5969 Y7.2268 
G01 X-37.5407 Y7.1706 
G01 X-33.2123 Y2.8422 
G01 X-22.0327 Y2.8422 
G01 X-16.4343 Y8.4405 
G01 X-16.3781 Y8.4968 
G01 X-16.3091 Y8.5366 
G01 X-16.2323 Y8.5572 
G01 X-12.3672 Y8.5572 
G01 X-12.3672 Y9.5648 
G01 X-12.3466 Y9.6416 
G01 X-12.3068 Y9.7106 
G01 X-7.8056 Y14.2118 
G01 X-7.7366 Y14.2516 
G01 X-7.6598 Y14.2722 
G01 X-6.1577 Y14.2722 
G01 X-5.3822 Y15.0477 
G01 X-5.3822 Y19.4073 
G01 X-5.3616 Y19.4841 
G01 X-5.3218 Y19.5531 
G01 X-5.2656 Y19.6093 
G01 X-2.8422 Y22.0327 
G01 X-2.8422 Y31.6248 
G01 X-7.1706 Y35.9532 
G01 X-7.2268 Y36.0094 
G01 X-7.2666 Y36.0784 
G01 X-7.2872 Y36.1552 
G01 X-7.2872 Y40.4260 
G01 X-7.3728 Y40.4260 
G01 X-7.4092 Y40.4411 
G01 X-7.4370 Y40.4689 
G01 X-7.4521 Y40.5053 
G01 X-7.4521 Y42.0447 
G01 X-7.4370 Y42.0811 
G01 X-7.4092 Y42.1089 
G01 X-7.3728 Y42.1240 
G01 X-7.2872 Y42.1240 
G01 X-7.2872 Y42.8609 
G01 X-7.2666 Y42.9378 
G01 X-7.2268 Y43.0067 
G01 X-7.0076 Y43.2259 
G01 X-7.0315 Y43.2834 
G01 X-7.0606 Y43.4301 
G01 X-7.0606 Y43.5128 
G01 X-8.5680 Y43.5128 
G01 X-8.6032 Y43.5117 
G01 X-8.6077 Y43.5128 
G01 X-8.6123 Y43.5128 
G01 X-8.6463 Y43.5219 
G01 X-8.6806 Y43.5300 
G01 X-8.6847 Y43.5322 
G01 X-8.6891 Y43.5334 
G01 X-8.7197 Y43.5510 
G01 X-8.7507 Y43.5677 
G01 X-8.7540 Y43.5709 
G01 X-8.7581 Y43.5732 
G01 X-8.7830 Y43.5982 
G01 X-9.4923 Y44.2660 
G01 X-10.1564 Y44.7403 
G01 X-10.7159 Y45.0201 
G01 X-11.5687 Y45.3044 
G01 X-12.4030 Y45.4178 
G01 X-12.4223 Y45.4178 
G01 X-12.4422 Y45.4231 
G01 X-12.4626 Y45.4259 
G01 X-12.4805 Y45.4334 
G01 X-12.4991 Y45.4384 
G01 X-12.5170 Y45.4487 
G01 X-12.5360 Y45.4567 
G01 X-12.5513 Y45.4685 
G01 X-12.5681 Y45.4782 
G01 X-12.5826 Y45.4928 
G01 X-12.5989 Y45.5054 
G01 X-12.6106 Y45.5208 
G01 X-16.9527 Y49.8628 
G01 X-31.6248 Y49.8628 
G01 X-34.6832 Y46.8044 
G01 X-34.7394 Y46.7482 
G01 X-34.8084 Y46.7084 
G01 X-34.8852 Y46.6878 
G01 X-40.5148 Y46.6878 
G01 X-41.7380 Y45.4646 
G01 X-41.4074 Y45.1341 
G01 X-41.3924 Y45.0977 
G01 X-41.3924 Y45.0583 
G01 X-41.4074 Y45.0219 
G01 X-41.6403 Y44.7890 
G01 X-41.3507 Y44.4993 
G01 X-41.3109 Y44.4304 
G01 X-41.2903 Y44.3535 
G01 X-41.2903 Y42.8227 
G01 X-41.3109 Y42.7459 
G01 X-41.3507 Y42.6769 
G01 X-44.1478 Y39.8798 
G01 X-44.1478 Y37.5902 
G01 X-43.8378 Y37.2802 
G01 X-43.8378 Y37.4593 
G01 X-43.8227 Y37.4957 
G01 X-43.7949 Y37.5235 
G01 X-43.7585 Y37.5386 
G01 X-42.8212 Y37.5386 
G01 X-42.6935 Y37.5640 
G01 X-41.1650 Y37.5640 
G01 X-41.1650 Y38.1197 
G01 X-41.1499 Y38.1561 
G01 X-41.1221 Y38.1839 
G01 X-41.0857 Y38.1990 
G01 X-36.9823 Y38.1990 
G01 X-36.9459 Y38.1839 
G01 X-36.9181 Y38.1561 
G01 X-36.9030 Y38.1197 
G01 X-36.9030 Y34.2703 
G01 X-36.9181 Y34.2339 
G01 X-36.9459 Y34.2061 
G01 X-36.9823 Y34.1910 
G01 X-39.0678 Y34.1910 
G01 X-39.0678 Y32.4722 
G01 X-39.0103 Y32.4484 
G01 X-38.8859 Y32.3653 
G01 X-38.7801 Y32.2595 
G01 X-38.6970 Y32.1351 
G01 X-38.6398 Y31.9969 
G01 X-38.6106 Y31.8502 
G01 X-38.6106 Y30.3798 
G01 X-38.6398 Y30.2331 
G01 X-38.6970 Y30.0949 
G01 X-38.7801 Y29.9705 
G01 X-38.8859 Y29.8647 
G01 X-39.0103 Y29.7816 
G01 X-39.1485 Y29.7244 
G01 X-39.2952 Y29.6952 
G01 X-39.4448 Y29.6952 
G01 X-39.5915 Y29.7244 
G01 X-39.7297 Y29.7816 
G01 X-39.8541 Y29.8647 
G01 X-39.9599 Y29.9705 
G01 X-40.0430 Y30.0949 
G01 X-40.1002 Y30.2331 
G01 X-40.1294 Y30.3798 
G01 X-40.1294 Y31.8502 
G01 X-40.1002 Y31.9969 
G01 X-40.0430 Y32.1351 
G01 X-39.9599 Y32.2595 
G01 X-39.8541 Y32.3653 
G01 X-39.7297 Y32.4484 
G01 X-39.6722 Y32.4722 
G01 X-39.6722 Y34.1910 
G01 X-41.0857 Y34.1910 
G01 X-41.1221 Y34.2061 
G01 X-41.1499 Y34.2339 
G01 X-41.1650 Y34.2703 
G01 X-41.1650 Y36.0960 
G01 X-42.6935 Y36.0960 
G01 X-42.8212 Y36.1214 
G01 X-43.7585 Y36.1214 
G01 X-43.7949 Y36.1365 
G01 X-43.8227 Y36.1643 
G01 X-43.8378 Y36.2007 
G01 X-43.8378 Y36.5278 
G01 X-43.8548 Y36.5278 
G01 X-43.9316 Y36.5484 
G01 X-44.0006 Y36.5882 
G01 X-44.6356 Y37.2232 
G01 X-44.6918 Y37.2794 
G01 X-44.7316 Y37.3484 
G01 X-44.7522 Y37.4252 
G01 X-44.7522 Y40.0448 
G01 X-44.7316 Y40.1216 
G01 X-44.6918 Y40.1906 
G01 X-41.8947 Y42.9877 
G01 X-41.8947 Y44.1886 
G01 X-42.0677 Y44.3616 
G01 X-42.3006 Y44.1287 
G01 X-42.3370 Y44.1136 
G01 X-42.3764 Y44.1136 
G01 X-42.4128 Y44.1287 
G01 X-43.5013 Y45.2172 
G01 X-43.5164 Y45.2536 
G01 X-43.5164 Y45.2930 
G01 X-43.5013 Y45.3294 
G01 X-43.0415 Y45.7891 
G01 X-43.5317 Y46.2794 
G01 X-43.5797 Y46.2794 
G01 X-43.7264 Y46.3085 
G01 X-43.8646 Y46.3658 
G01 X-43.9890 Y46.4489 
G01 X-45.0287 Y47.4886 
G01 X-45.1118 Y47.6130 
G01 X-45.1691 Y47.7512 
G01 X-45.1983 Y47.8979 
G01 X-45.1983 Y48.0475 
G01 X-45.1691 Y48.1942 
G01 X-45.1118 Y48.3324 
G01 X-45.0287 Y48.4568 
G01 X-44.9229 Y48.5626 
G01 X-44.7986 Y48.6457 
G01 X-44.6604 Y48.7029 
G01 X-44.5137 Y48.7321 
G01 X-44.3641 Y48.7321 
G01 X-44.2173 Y48.7029 
G01 X-44.0791 Y48.6457 
G01 X-43.9548 Y48.5626 
G01 X-42.9151 Y47.5228 
G01 X-42.8319 Y47.3985 
G01 X-42.7747 Y47.2603 
G01 X-42.7455 Y47.1135 
G01 X-42.7455 Y46.9640 
G01 X-42.7747 Y46.8172 
G01 X-42.8319 Y46.6790 
G01 X-42.9151 Y46.5547 
G01 X-42.9337 Y46.5360 
G01 X-42.6141 Y46.2165 
G01 X-42.6081 Y46.2226 
G01 X-42.5717 Y46.2376 
G01 X-42.5323 Y46.2376 
G01 X-42.4959 Y46.2226 
G01 X-42.1654 Y45.8920 
G01 X-40.8256 Y47.2318 
G01 X-40.7566 Y47.2716 
G01 X-40.6798 Y47.2922 
G01 X-35.0502 Y47.2922 
G01 X-31.9918 Y50.3506 
G01 X-31.9356 Y50.4068 
G01 X-31.8666 Y50.4466 
G01 X-31.7898 Y50.4672 
G01 X-16.7877 Y50.4672 
G01 X-16.7109 Y50.4466 
G01 X-16.6419 Y50.4068 
G01 X-12.2408 Y46.0057 
G01 X-11.4705 Y45.9010 
G01 X-11.4422 Y45.8993 
G01 X-11.4313 Y45.8956 
G01 X-11.4199 Y45.8941 
G01 X-11.3936 Y45.8831 
G01 X-10.5216 Y45.5924 
G01 X-10.5004 Y45.5881 
G01 X-10.4841 Y45.5799 
G01 X-10.4667 Y45.5741 
G01 X-10.4486 Y45.5622 
G01 X-9.8791 Y45.2774 
G01 X-9.8567 Y45.2690 
G01 X-9.8436 Y45.2597 
G01 X-9.8293 Y45.2525 
G01 X-9.8114 Y45.2367 
G01 X-9.1399 Y44.7570 
G01 X-9.1218 Y44.7473 
G01 X-9.1077 Y44.7340 
G01 X-9.0920 Y44.7228 
G01 X-9.0789 Y44.7069 
G01 X-8.4526 Y44.1172 
G01 X-6.7629 Y44.1172 
G01 X-5.8514 Y45.0287 
G01 X-5.7270 Y45.1118 
G01 X-5.5888 Y45.1691 
G01 X-5.4421 Y45.1983 
G01 X-5.2925 Y45.1983 
G01 X-5.1458 Y45.1691 
G01 X-5.0076 Y45.1118 
G01 X-4.8832 Y45.0287 
G01 X-4.7774 Y44.9229 
G01 X-4.6943 Y44.7986 
G01 X-4.6371 Y44.6604 
G01 X-4.6079 Y44.5137 
G01 X-4.6079 Y44.3641 
G01 X-4.6371 Y44.2173 
G01 X-4.6943 Y44.0791 
G01 X-4.7774 Y43.9548 
G01 X-5.8172 Y42.9151 
G01 X-5.9415 Y42.8319 
G01 X-6.0797 Y42.7747 
G01 X-6.2264 Y42.7455 
G01 X-6.3760 Y42.7455 
G01 X-6.5228 Y42.7747 
G01 X-6.5803 Y42.7985 
G01 X-6.6828 Y42.6960 
G01 X-6.6828 Y42.1240 
G01 X-6.1096 Y42.1240 
G01 X-6.0732 Y42.1089 
G01 X-6.0454 Y42.0811 
G01 X-6.0303 Y42.0447 
G01 X-6.0303 Y40.5053 
G01 X-6.0454 Y40.4689 
G01 X-6.0732 Y40.4411 
G01 X-6.1096 Y40.4260 
G01 X-6.6828 Y40.4260 
G01 X-6.6828 Y36.3202 
G01 X-2.3544 Y31.9918 
G01 X-2.2982 Y31.9356 
G01 X-2.2584 Y31.8666 
G01 X-2.2378 Y31.7898 
G01 X-2.2378 Y21.8677 
G01 X-2.2584 Y21.7909 
G01 X-2.2982 Y21.7219 
G01 X-2.3544 Y21.6657 
G01 X-4.7778 Y19.2423 
G01 X-4.7778 Y14.8827 
G01 X-4.7984 Y14.8059 
G01 X-4.8382 Y14.7369 
G00 Z2.0000 
G00 X-5.4732 Y15.0544 
G01 Z-0.0500 F254.00 
G01 X-5.5294 Y14.9982 F508.00 
G01 X-6.1644 Y14.3632 
G01 X-6.2334 Y14.3234 
G01 X-6.3102 Y14.3028 
G01 X-11.6358 Y14.3028 
G01 X-11.6358 Y14.2551 
G01 X-11.6509 Y14.2187 
G01 X-11.6787 Y14.1909 
G01 X-11.7151 Y14.1758 
G01 X-12.7350 Y14.1758 
G01 X-13.0900 Y13.7900 
G01 X-13.0932 Y13.7844 
G01 X-13.1169 Y13.7608 
G01 X-13.1395 Y13.7361 
G01 X-13.1449 Y13.7327 
G01 X-20.0178 Y6.8598 
G01 X-20.0178 Y5.0402 
G01 X-20.0384 Y4.9634 
G01 X-20.0782 Y4.8944 
G01 X-21.9832 Y2.9894 
G01 X-22.0394 Y2.9332 
G01 X-22.1084 Y2.8934 
G01 X-22.1852 Y2.8728 
G01 X-33.0598 Y2.8728 
G01 X-33.1366 Y2.8934 
G01 X-33.2056 Y2.9332 
G01 X-37.5902 Y7.3178 
G01 X-41.6323 Y7.3178 
G01 X-41.7091 Y7.3384 
G01 X-41.7781 Y7.3782 
G01 X-50.0893 Y15.6894 
G01 X-50.1291 Y15.7584 
G01 X-50.1497 Y15.8352 
G01 X-50.1497 Y26.3923 
G01 X-50.1291 Y26.4691 
G01 X-50.0893 Y26.5381 
G01 X-48.9843 Y27.6430 
G01 X-49.0156 Y27.7185 
G01 X-49.0448 Y27.8652 
G01 X-49.0448 Y28.0148 
G01 X-49.0156 Y28.1615 
G01 X-48.9584 Y28.2997 
G01 X-48.8753 Y28.4241 
G01 X-48.7695 Y28.5299 
G01 X-48.6451 Y28.6130 
G01 X-48.5069 Y28.6702 
G01 X-48.3602 Y28.6994 
G01 X-46.8898 Y28.6994 
G01 X-46.7431 Y28.6702 
G01 X-46.6049 Y28.6130 
G01 X-46.4805 Y28.5299 
G01 X-46.3747 Y28.4241 
G01 X-46.2916 Y28.2997 
G01 X-46.2344 Y28.1615 
G01 X-46.2052 Y28.0148 
G01 X-46.2052 Y27.8652 
G01 X-46.2344 Y27.7185 
G01 X-46.2916 Y27.5803 
G01 X-46.3747 Y27.4559 
G01 X-46.4805 Y27.3501 
G01 X-46.6049 Y27.2670 
G01 X-46.7431 Y27.2098 
G01 X-46.8898 Y27.1806 
G01 X-48.3602 Y27.1806 
G01 X-48.5069 Y27.2098 
G01 X-48.5465 Y27.2262 
G01 X-49.5453 Y26.2273 
G01 X-49.5453 Y16.0002 
G01 X-41.4673 Y7.9222 
G01 X-37.4252 Y7.9222 
G01 X-37.3484 Y7.9016 
G01 X-37.2794 Y7.8618 
G01 X-37.2232 Y7.8056 
G01 X-32.8948 Y3.4772 
G01 X-28.2422 Y3.4772 
G01 X-28.2422 Y4.3578 
G01 X-28.2997 Y4.3816 
G01 X-28.4241 Y4.4647 
G01 X-28.5299 Y4.5705 
G01 X-28.6130 Y4.6949 
G01 X-28.6702 Y4.8331 
G01 X-28.6994 Y4.9798 
G01 X-28.6994 Y6.4502 
G01 X-28.6702 Y6.5969 
G01 X-28.6130 Y6.7351 
G01 X-28.5299 Y6.8595 
G01 X-28.4241 Y6.9653 
G01 X-28.2997 Y7.0484 
G01 X-28.1615 Y7.1056 
G01 X-28.0148 Y7.1348 
G01 X-27.8652 Y7.1348 
G01 X-27.7185 Y7.1056 
G01 X-27.5803 Y7.0484 
G01 X-27.4559 Y6.9653 
G01 X-27.3501 Y6.8595 
G01 X-27.2670 Y6.7351 
G01 X-27.2098 Y6.5969 
G01 X-27.1806 Y6.4502 
G01 X-27.1806 Y4.9798 
G01 X-27.2098 Y4.8331 
G01 X-27.2670 Y4.6949 
G01 X-27.3501 Y4.5705 
G01 X-27.4559 Y4.4647 
G01 X-27.5803 Y4.3816 
G01 X-27.6378 Y4.3578 
G01 X-27.6378 Y3.4772 
G01 X-22.3502 Y3.4772 
G01 X-20.6222 Y5.2052 
G01 X-20.6222 Y7.0248 
G01 X-20.6016 Y7.1016 
G01 X-20.5618 Y7.1706 
G01 X-20.5056 Y7.2268 
G01 X-13.5566 Y14.1758 
G01 X-13.7865 Y14.1758 
G01 X-13.8229 Y14.1909 
G01 X-13.8507 Y14.2187 
G01 X-13.8658 Y14.2551 
G01 X-13.8658 Y14.9549 
G01 X-13.8507 Y14.9913 
G01 X-13.8229 Y15.0191 
G01 X-13.7865 Y15.0342 
G01 X-11.7151 Y15.0342 
G01 X-11.6787 Y15.0191 
G01 X-11.6509 Y14.9913 
G01 X-11.6358 Y14.9549 
G01 X-11.6358 Y14.9072 
G01 X-6.4752 Y14.9072 
G01 X-6.0172 Y15.3652 
G01 X-6.0172 Y19.7248 
G01 X-5.9966 Y19.8016 
G01 X-5.9568 Y19.8706 
G01 X-3.4772 Y22.3502 
G01 X-3.4772 Y26.2273 
G01 X-4.5882 Y27.3383 
G01 X-4.6949 Y27.2670 
G01 X-4.8331 Y27.2098 
G01 X-4.9798 Y27.1806 
G01 X-6.4502 Y27.1806 
G01 X-6.5969 Y27.2098 
G01 X-6.7351 Y27.2670 
G01 X-6.8595 Y27.3501 
G01 X-6.9653 Y27.4559 
G01 X-7.0484 Y27.5803 
G01 X-7.1056 Y27.7185 
G01 X-7.1348 Y27.8652 
G01 X-7.1348 Y28.0148 
G01 X-7.1056 Y28.1615 
G01 X-7.0484 Y28.2997 
G01 X-6.9653 Y28.4241 
G01 X-6.8595 Y28.5299 
G01 X-6.7351 Y28.6130 
G01 X-6.5969 Y28.6702 
G01 X-6.4502 Y28.6994 
G01 X-4.9798 Y28.6994 
G01 X-4.8331 Y28.6702 
G01 X-4.6949 Y28.6130 
G01 X-4.5882 Y28.5417 
G01 X-3.4772 Y29.6527 
G01 X-3.4772 Y31.3073 
G01 X-8.4406 Y36.2707 
G01 X-8.4968 Y36.3269 
G01 X-8.5366 Y36.3959 
G01 X-8.5572 Y36.4727 
G01 X-8.5572 Y40.6400 
G01 X-8.5611 Y40.8207 
G01 X-8.5926 Y41.1807 
G01 X-8.6554 Y41.5367 
G01 X-8.7489 Y41.8858 
G01 X-8.8726 Y42.2254 
G01 X-9.0253 Y42.5529 
G01 X-9.2060 Y42.8659 
G01 X-9.4133 Y43.1620 
G01 X-9.6456 Y43.4388 
G01 X-9.9012 Y43.6944 
G01 X-10.1780 Y43.9267 
G01 X-10.4741 Y44.1340 
G01 X-10.7871 Y44.3147 
G01 X-11.1146 Y44.4674 
G01 X-11.4542 Y44.5911 
G01 X-11.8033 Y44.6846 
G01 X-12.1593 Y44.7474 
G01 X-12.5193 Y44.7789 
G01 X-12.7000 Y44.7828 
G01 X-12.7398 Y44.7828 
G01 X-12.8166 Y44.8034 
G01 X-12.8856 Y44.8432 
G01 X-12.9418 Y44.8994 
G01 X-17.2702 Y49.2278 
G01 X-27.6378 Y49.2278 
G01 X-27.6378 Y48.9822 
G01 X-27.5803 Y48.9584 
G01 X-27.4559 Y48.8753 
G01 X-27.3501 Y48.7695 
G01 X-27.2670 Y48.6451 
G01 X-27.2098 Y48.5069 
G01 X-27.1806 Y48.3602 
G01 X-27.1806 Y46.8898 
G01 X-27.2098 Y46.7431 
G01 X-27.2670 Y46.6049 
G01 X-27.3501 Y46.4805 
G01 X-27.4559 Y46.3747 
G01 X-27.5803 Y46.2916 
G01 X-27.7185 Y46.2344 
G01 X-27.8652 Y46.2052 
G01 X-28.0148 Y46.2052 
G01 X-28.1615 Y46.2344 
G01 X-28.2997 Y46.2916 
G01 X-28.4241 Y46.3747 
G01 X-28.5299 Y46.4805 
G01 X-28.6130 Y46.6049 
G01 X-28.6702 Y46.7431 
G01 X-28.6994 Y46.8898 
G01 X-28.6994 Y48.3602 
G01 X-28.6702 Y48.5069 
G01 X-28.6130 Y48.6451 
G01 X-28.5299 Y48.7695 
G01 X-28.4241 Y48.8753 
G01 X-28.2997 Y48.9584 
G01 X-28.2422 Y48.9822 
G01 X-28.2422 Y49.2278 
G01 X-30.9898 Y49.2278 
G01 X-31.6637 Y48.5539 
G01 X-31.6637 Y43.6648 
G01 X-28.5216 Y40.5227 
G01 X-28.4241 Y40.6203 
G01 X-28.2997 Y40.7034 
G01 X-28.1615 Y40.7606 
G01 X-28.0148 Y40.7898 
G01 X-27.8652 Y40.7898 
G01 X-27.7185 Y40.7606 
G01 X-27.5803 Y40.7034 
G01 X-27.4559 Y40.6203 
G01 X-27.3501 Y40.5145 
G01 X-27.2670 Y40.3901 
G01 X-27.2098 Y40.2519 
G01 X-27.1806 Y40.1052 
G01 X-27.1806 Y38.6348 
G01 X-27.2060 Y38.5071 
G01 X-27.2060 Y33.8829 
G01 X-27.1806 Y33.7552 
G01 X-27.1806 Y32.2848 
G01 X-27.2098 Y32.1381 
G01 X-27.2670 Y31.9999 
G01 X-27.3501 Y31.8755 
G01 X-27.4559 Y31.7697 
G01 X-27.5803 Y31.6866 
G01 X-27.7185 Y31.6294 
G01 X-27.8652 Y31.6002 
G01 X-28.0148 Y31.6002 
G01 X-28.1615 Y31.6294 
G01 X-28.2370 Y31.6606 
G01 X-29.6594 Y30.2382 
G01 X-29.7284 Y30.1984 
G01 X-29.8052 Y30.1778 
G01 X-33.5827 Y30.1778 
G01 X-33.6170 Y30.0949 
G01 X-33.7001 Y29.9705 
G01 X-33.8059 Y29.8647 
G01 X-33.9303 Y29.7816 
G01 X-34.0685 Y29.7244 
G01 X-34.2152 Y29.6952 
G01 X-34.3648 Y29.6952 
G01 X-34.5115 Y29.7244 
G01 X-34.6497 Y29.7816 
G01 X-34.7741 Y29.8647 
G01 X-34.8799 Y29.9705 
G01 X-34.9630 Y30.0949 
G01 X-35.0202 Y30.2331 
G01 X-35.0494 Y30.3798 
G01 X-35.0494 Y31.8502 
G01 X-35.0202 Y31.9969 
G01 X-34.9630 Y32.1351 
G01 X-34.8799 Y32.2595 
G01 X-34.7741 Y32.3653 
G01 X-34.6497 Y32.4484 
G01 X-34.5115 Y32.5056 
G01 X-34.3648 Y32.5348 
G01 X-34.2152 Y32.5348 
G01 X-34.0685 Y32.5056 
G01 X-33.9303 Y32.4484 
G01 X-33.8059 Y32.3653 
G01 X-33.7001 Y32.2595 
G01 X-33.6170 Y32.1351 
G01 X-33.5598 Y31.9969 
G01 X-33.5306 Y31.8502 
G01 X-33.5306 Y30.7830 
G01 X-29.9702 Y30.7822 
G01 X-28.6538 Y32.0985 
G01 X-28.6702 Y32.1381 
G01 X-28.6994 Y32.2848 
G01 X-28.6994 Y33.7552 
G01 X-28.6740 Y33.8829 
G01 X-28.6740 Y38.5071 
G01 X-28.6994 Y38.6348 
G01 X-28.6994 Y39.5583 
G01 X-32.3154 Y43.1744 
G01 X-32.3906 Y43.2496 
G01 X-32.4438 Y43.3416 
G01 X-32.4713 Y43.4443 
G01 X-32.4713 Y45.3162 
G01 X-36.6627 Y45.3162 
G01 X-36.9030 Y45.0759 
G01 X-36.9030 Y41.2553 
G01 X-36.9181 Y41.2189 
G01 X-36.9459 Y41.1911 
G01 X-36.9823 Y41.1760 
G01 X-39.7010 Y41.1760 
G01 X-41.4046 Y39.4724 
G01 X-41.4046 Y38.5121 
G01 X-41.4197 Y38.4757 
G01 X-41.4475 Y38.4479 
G01 X-41.4839 Y38.4328 
G01 X-43.7585 Y38.4328 
G01 X-43.7949 Y38.4479 
G01 X-43.8227 Y38.4757 
G01 X-43.8378 Y38.5121 
G01 X-43.8378 Y39.7707 
G01 X-43.8227 Y39.8071 
G01 X-43.7949 Y39.8349 
G01 X-43.7585 Y39.8500 
G01 X-43.1030 Y39.8500 
G01 X-41.1650 Y41.7880 
G01 X-41.1650 Y45.1047 
G01 X-41.1499 Y45.1411 
G01 X-41.1221 Y45.1689 
G01 X-41.0857 Y45.1840 
G01 X-37.9371 Y45.1840 
G01 X-37.1531 Y45.9679 
G01 X-37.0779 Y46.0431 
G01 X-36.9859 Y46.0963 
G01 X-36.8832 Y46.1238 
G01 X-32.4713 Y46.1238 
G01 X-32.4713 Y48.6307 
G01 X-32.4438 Y48.7334 
G01 X-32.3906 Y48.8254 
G01 X-32.3154 Y48.9006 
G01 X-32.2234 Y48.9538 
G01 X-32.1207 Y48.9813 
G01 X-32.0911 Y48.9813 
G01 X-31.3568 Y49.7156 
G01 X-31.3006 Y49.7718 
G01 X-31.2316 Y49.8116 
G01 X-31.1548 Y49.8322 
G01 X-17.1052 Y49.8322 
G01 X-17.0284 Y49.8116 
G01 X-16.9594 Y49.7718 
G01 X-16.9032 Y49.7156 
G01 X-12.5748 Y45.3872 
G01 X-12.4927 Y45.3872 
G01 X-12.0798 Y45.3511 
G01 X-11.6715 Y45.2791 
G01 X-11.2711 Y45.1718 
G01 X-10.8816 Y45.0300 
G01 X-10.5059 Y44.8548 
G01 X-10.1469 Y44.6476 
G01 X-9.8073 Y44.4098 
G01 X-9.4898 Y44.1433 
G01 X-9.1967 Y43.8502 
G01 X-8.9302 Y43.5327 
G01 X-8.6924 Y43.1931 
G01 X-8.4852 Y42.8341 
G01 X-8.3100 Y42.4584 
G01 X-8.1682 Y42.0689 
G01 X-8.0609 Y41.6685 
G01 X-7.9889 Y41.2602 
G01 X-7.9528 Y40.8473 
G01 X-7.9528 Y36.6377 
G01 X-2.9332 Y31.6181 
G01 X-2.8934 Y31.5491 
G01 X-2.8728 Y31.4723 
G01 X-2.8728 Y29.4877 
G01 X-2.8934 Y29.4109 
G01 X-2.9332 Y29.3419 
G01 X-4.2952 Y27.9799 
G01 X-4.2952 Y27.9001 
G01 X-2.9332 Y26.5381 
G01 X-2.8934 Y26.4691 
G01 X-2.8728 Y26.3923 
G01 X-2.8728 Y22.1852 
G01 X-2.8934 Y22.1084 
G01 X-2.9332 Y22.0394 
G01 X-5.4128 Y19.5598 
G01 X-5.4128 Y15.2002 
G01 X-5.4334 Y15.1234 
G01 X-5.4732 Y15.0544 
G00 Z2.0000 
G00 X-6.1960 Y15.4881 
G01 Z-0.0500 F254.00 
G01 X-6.2806 Y15.4035 F508.00 
G01 X-6.3800 Y15.3371 
G01 X-6.4904 Y15.2913 
G01 X-6.6077 Y15.2680 
G01 X-12.7598 Y15.2680 
G01 X-12.8771 Y15.2913 
G01 X-12.9875 Y15.3371 
G01 X-13.0869 Y15.4035 
G01 X-13.1292 Y15.4458 
G01 X-13.7865 Y15.4458 
G01 X-13.8229 Y15.4609 
G01 X-13.8507 Y15.4887 
G01 X-13.8658 Y15.5251 
G01 X-13.8658 Y16.2249 
G01 X-13.8507 Y16.2613 
G01 X-13.8229 Y16.2891 
G01 X-13.7865 Y16.3042 
G01 X-13.1292 Y16.3042 
G01 X-13.0869 Y16.3465 
G01 X-12.9875 Y16.4129 
G01 X-12.8771 Y16.4587 
G01 X-12.7598 Y16.4820 
G01 X-6.6077 Y16.4820 
G01 X-6.4904 Y16.4587 
G01 X-6.3800 Y16.4129 
G01 X-6.2806 Y16.3465 
G01 X-6.1960 Y16.2619 
G01 X-6.1296 Y16.1625 
G01 X-6.0838 Y16.0521 
G01 X-6.0605 Y15.9348 
G01 X-6.0605 Y15.8152 
G01 X-6.0838 Y15.6979 
G01 X-6.1296 Y15.5875 
G01 X-6.1960 Y15.4881 
G00 Z2.0000 
G00 X-6.1960 Y16.7581 
G01 Z-0.0500 F254.00 
G01 X-6.2806 Y16.6735 F508.00 
G01 X-6.3800 Y16.6071 
G01 X-6.4904 Y16.5613 
G01 X-6.6077 Y16.5380 
G01 X-12.7598 Y16.5380 
G01 X-12.8771 Y16.5613 
G01 X-12.9875 Y16.6071 
G01 X-13.0869 Y16.6735 
G01 X-13.1292 Y16.7158 
G01 X-13.7865 Y16.7158 
G01 X-13.8229 Y16.7309 
G01 X-13.8507 Y16.7587 
G01 X-13.8658 Y16.7951 
G01 X-13.8658 Y17.4949 
G01 X-13.8507 Y17.5313 
G01 X-13.8229 Y17.5591 
G01 X-13.7865 Y17.5742 
G01 X-13.1292 Y17.5742 
G01 X-13.0869 Y17.6165 
G01 X-12.9875 Y17.6829 
G01 X-12.8771 Y17.7287 
G01 X-12.7598 Y17.7520 
G01 X-6.6077 Y17.7520 
G01 X-6.4904 Y17.7287 
G01 X-6.3800 Y17.6829 
G01 X-6.2806 Y17.6165 
G01 X-6.1960 Y17.5319 
G01 X-6.1296 Y17.4325 
G01 X-6.0838 Y17.3221 
G01 X-6.0605 Y17.2048 
G01 X-6.0605 Y17.0852 
G01 X-6.0838 Y16.9679 
G01 X-6.1296 Y16.8575 
G01 X-6.1960 Y16.7581 
G00 Z2.0000 
G00 X-6.1960 Y18.0281 
G01 Z-0.0500 F254.00 
G01 X-6.2806 Y17.9435 F508.00 
G01 X-6.3800 Y17.8771 
G01 X-6.4904 Y17.8313 
G01 X-6.6077 Y17.8080 
G01 X-12.7598 Y17.8080 
G01 X-12.8771 Y17.8313 
G01 X-12.9875 Y17.8771 
G01 X-13.0869 Y17.9435 
G01 X-13.1292 Y17.9858 
G01 X-13.7865 Y17.9858 
G01 X-13.8229 Y18.0009 
G01 X-13.8507 Y18.0287 
G01 X-13.8658 Y18.0651 
G01 X-13.8658 Y18.7649 
G01 X-13.8507 Y18.8013 
G01 X-13.8229 Y18.8291 
G01 X-13.7865 Y18.8442 
G01 X-13.1292 Y18.8442 
G01 X-13.0869 Y18.8865 
G01 X-12.9875 Y18.9529 
G01 X-12.8771 Y18.9987 
G01 X-12.7598 Y19.0220 
G01 X-6.6077 Y19.0220 
G01 X-6.4904 Y18.9987 
G01 X-6.3800 Y18.9529 
G01 X-6.2806 Y18.8865 
G01 X-6.1960 Y18.8019 
G01 X-6.1296 Y18.7025 
G01 X-6.0838 Y18.5921 
G01 X-6.0605 Y18.4748 
G01 X-6.0605 Y18.3552 
G01 X-6.0838 Y18.2379 
G01 X-6.1296 Y18.1275 
G01 X-6.1960 Y18.0281 
G00 Z2.0000 
G00 X-6.1960 Y19.2981 
G01 Z-0.0500 F254.00 
G01 X-6.2806 Y19.2135 F508.00 
G01 X-6.3800 Y19.1471 
G01 X-6.4904 Y19.1013 
G01 X-6.6077 Y19.0780 
G01 X-12.7598 Y19.0780 
G01 X-12.8771 Y19.1013 
G01 X-12.9875 Y19.1471 
G01 X-13.0869 Y19.2135 
G01 X-13.1292 Y19.2558 
G01 X-13.7865 Y19.2558 
G01 X-13.8229 Y19.2709 
G01 X-13.8507 Y19.2987 
G01 X-13.8658 Y19.3351 
G01 X-13.8658 Y20.0349 
G01 X-13.8507 Y20.0713 
G01 X-13.8229 Y20.0991 
G01 X-13.7865 Y20.1142 
G01 X-13.1292 Y20.1142 
G01 X-13.0869 Y20.1565 
G01 X-12.9875 Y20.2229 
G01 X-12.8771 Y20.2687 
G01 X-12.7598 Y20.2920 
G01 X-6.6077 Y20.2920 
G01 X-6.4904 Y20.2687 
G01 X-6.3800 Y20.2229 
G01 X-6.2806 Y20.1565 
G01 X-6.1960 Y20.0719 
G01 X-6.1296 Y19.9725 
G01 X-6.0838 Y19.8621 
G01 X-6.0605 Y19.7448 
G01 X-6.0605 Y19.6252 
G01 X-6.0838 Y19.5079 
G01 X-6.1296 Y19.3975 
G01 X-6.1960 Y19.2981 
G00 Z2.0000 
G00 X-6.1037 Y19.9870 
G01 Z-0.0500 F254.00 
G01 X-6.3207 Y20.2040 F508.00 
G01 X-6.5457 Y20.2972 
G01 X-7.1467 Y20.2972 
G01 X-7.2298 Y20.3316 
G01 X-7.2923 Y20.3942 
G01 X-7.3277 Y20.4782 
G01 X-7.3277 Y20.5682 
G01 X-7.2933 Y20.6512 
G01 X-7.1477 Y20.7968 
G01 X-7.1477 Y21.5789 
G01 X-7.1133 Y21.6620 
G01 X-7.0497 Y21.7255 
G01 X-6.7738 Y22.0015 
G01 X-6.7112 Y22.0641 
G01 X-6.6421 Y22.0933 
G01 X-6.6272 Y22.0994 
G01 X-6.5827 Y22.0994 
G01 X-6.5373 Y22.0994 
G01 X-6.5275 Y22.0954 
G01 X-4.9025 Y22.0954 
G01 X-4.6215 Y22.2118 
G01 X-4.4064 Y22.4269 
G01 X-4.2900 Y22.7079 
G01 X-4.2900 Y23.0121 
G01 X-4.4064 Y23.2931 
G01 X-4.6215 Y23.5082 
G01 X-4.9025 Y23.6246 
G01 X-6.5275 Y23.6246 
G01 X-6.8085 Y23.5082 
G01 X-7.0236 Y23.2931 
G01 X-7.1400 Y23.0121 
G01 X-7.1400 Y22.6252 
G01 X-7.1744 Y22.5422 
G01 X-7.2380 Y22.4786 
G01 X-7.3210 Y22.4442 
G01 X-8.4016 Y22.4442 
G01 X-8.4846 Y22.4786 
G01 X-8.5482 Y22.5422 
G01 X-8.5826 Y22.6252 
G01 X-8.5826 Y24.3648 
G01 X-8.5482 Y24.4478 
G01 X-8.4846 Y24.5114 
G01 X-8.4016 Y24.5458 
G01 X-7.2087 Y24.5458 
G01 X-7.1422 Y24.6124 
G01 X-7.1133 Y24.6821 
G01 X-7.0507 Y24.7447 
G01 X-6.9667 Y24.7801 
G01 X-6.8767 Y24.7801 
G01 X-6.8717 Y24.7780 
G01 X-6.5275 Y24.6354 
G01 X-4.9025 Y24.6354 
G01 X-4.6215 Y24.7518 
G01 X-4.4064 Y24.9669 
G01 X-4.2900 Y25.2479 
G01 X-4.2900 Y25.5521 
G01 X-4.4064 Y25.8331 
G01 X-4.6215 Y26.0482 
G01 X-4.9025 Y26.1646 
G01 X-6.5275 Y26.1646 
G01 X-6.8767 Y26.0199 
G01 X-6.9667 Y26.0199 
G01 X-7.0497 Y26.0543 
G01 X-7.1133 Y26.1179 
G01 X-7.1422 Y26.1876 
G01 X-7.2087 Y26.2542 
G01 X-8.4016 Y26.2542 
G01 X-8.4846 Y26.2886 
G01 X-8.5482 Y26.3522 
G01 X-8.5826 Y26.4352 
G01 X-8.5826 Y27.1290 
G01 X-8.5482 Y27.2121 
G01 X-8.5401 Y27.2202 
G01 X-7.4940 Y28.2663 
G01 X-7.4109 Y28.3007 
G01 X-7.3210 Y28.3007 
G01 X-7.2380 Y28.2663 
G01 X-7.1744 Y28.2027 
G01 X-7.1400 Y28.1196 
G01 X-7.1400 Y27.7879 
G01 X-7.0236 Y27.5069 
G01 X-6.8085 Y27.2918 
G01 X-6.5275 Y27.1754 
G01 X-4.9025 Y27.1754 
G01 X-4.6682 Y27.2724 
G01 X-4.5783 Y27.2724 
G01 X-4.4953 Y27.2380 
G01 X-4.4317 Y27.1745 
G01 X-3.5168 Y26.2596 
G01 X-3.4824 Y26.1765 
G01 X-3.4824 Y22.4010 
G01 X-3.5168 Y22.3179 
G01 X-5.7841 Y20.0506 
G01 X-5.8467 Y19.9880 
G01 X-5.9308 Y19.9526 
G01 X-6.0207 Y19.9526 
G01 X-6.1037 Y19.9870 
G00 Z2.0000 
G00 X-7.1680 Y20.7839 
G01 Z-0.0500 F254.00 
G01 X-7.1958 Y20.7561 F508.00 
G01 X-7.2322 Y20.7410 
G01 X-8.4954 Y20.7410 
G01 X-8.5318 Y20.7561 
G01 X-8.5596 Y20.7839 
G01 X-8.5747 Y20.8203 
G01 X-8.5747 Y22.3597 
G01 X-8.5596 Y22.3961 
G01 X-8.5318 Y22.4239 
G01 X-8.4954 Y22.4390 
G01 X-7.2322 Y22.4390 
G01 X-7.2083 Y22.4291 
G01 X-7.0743 Y22.5630 
G01 X-7.1056 Y22.6385 
G01 X-7.1348 Y22.7852 
G01 X-7.1348 Y22.9348 
G01 X-7.1056 Y23.0815 
G01 X-7.0484 Y23.2197 
G01 X-6.9653 Y23.3441 
G01 X-6.8595 Y23.4499 
G01 X-6.7351 Y23.5330 
G01 X-6.5969 Y23.5902 
G01 X-6.4502 Y23.6194 
G01 X-4.9798 Y23.6194 
G01 X-4.8331 Y23.5902 
G01 X-4.6949 Y23.5330 
G01 X-4.5705 Y23.4499 
G01 X-4.4647 Y23.3441 
G01 X-4.3816 Y23.2197 
G01 X-4.3244 Y23.0815 
G01 X-4.2952 Y22.9348 
G01 X-4.2952 Y22.7852 
G01 X-4.3244 Y22.6385 
G01 X-4.3816 Y22.5003 
G01 X-4.4647 Y22.3759 
G01 X-4.5705 Y22.2701 
G01 X-4.6949 Y22.1870 
G01 X-4.8331 Y22.1298 
G01 X-4.9798 Y22.1006 
G01 X-6.4502 Y22.1006 
G01 X-6.5969 Y22.1298 
G01 X-6.6365 Y22.1462 
G01 X-7.1529 Y21.6297 
G01 X-7.1529 Y20.8203 
G01 X-7.1680 Y20.7839 
G00 Z2.0000 
G00 X-8.4343 Y20.6512 
G01 Z-0.0500 F254.00 
G01 X-8.3999 Y20.5682 F508.00 
G01 X-8.3999 Y20.4782 
G01 X-8.4343 Y20.3952 
G01 X-8.4978 Y20.3316 
G01 X-8.5809 Y20.2972 
G01 X-9.1991 Y20.2972 
G01 X-9.2821 Y20.3316 
G01 X-9.3447 Y20.3942 
G01 X-9.3801 Y20.4782 
G01 X-9.3801 Y20.5682 
G01 X-9.3457 Y20.6512 
G01 X-9.2001 Y20.7968 
G01 X-9.2001 Y22.0665 
G01 X-9.1657 Y22.1496 
G01 X-8.9339 Y22.3814 
G01 X-8.8509 Y22.4158 
G01 X-8.7609 Y22.4158 
G01 X-8.6802 Y22.3823 
G01 X-8.6143 Y22.3178 
G01 X-8.5799 Y22.2347 
G01 X-8.5799 Y20.7968 
G01 X-8.4343 Y20.6512 
G00 Z2.0000 
G00 X-9.2204 Y20.7839 
G01 Z-0.0500 F254.00 
G01 X-9.2482 Y20.7561 F508.00 
G01 X-9.2846 Y20.7410 
G01 X-10.3378 Y20.7410 
G01 X-10.3656 Y20.7132 
G01 X-10.4346 Y20.6734 
G01 X-10.5114 Y20.6528 
G01 X-11.6358 Y20.6528 
G01 X-11.6358 Y20.6051 
G01 X-11.6509 Y20.5687 
G01 X-11.6787 Y20.5409 
G01 X-11.7151 Y20.5258 
G01 X-13.7865 Y20.5258 
G01 X-13.8229 Y20.5409 
G01 X-13.8507 Y20.5687 
G01 X-13.8658 Y20.6051 
G01 X-13.8658 Y20.6318 
G01 X-14.3028 Y20.1948 
G01 X-14.3028 Y13.6127 
G01 X-14.3234 Y13.5359 
G01 X-14.3632 Y13.4669 
G01 X-18.4907 Y9.3394 
G01 X-18.5469 Y9.2832 
G01 X-18.6159 Y9.2434 
G01 X-18.6927 Y9.2228 
G01 X-22.0515 Y9.2228 
G01 X-22.0903 Y9.2053 
G01 X-23.3873 Y9.2053 
G01 X-23.8882 Y8.7044 
G01 X-23.9444 Y8.6482 
G01 X-24.0134 Y8.6084 
G01 X-24.0902 Y8.5878 
G01 X-27.1798 Y8.5878 
G01 X-28.9078 Y6.8598 
G01 X-28.9078 Y4.4052 
G01 X-28.9284 Y4.3284 
G01 X-28.9682 Y4.2594 
G01 X-29.6032 Y3.6244 
G01 X-29.6594 Y3.5682 
G01 X-29.7284 Y3.5284 
G01 X-29.8052 Y3.5078 
G01 X-32.7423 Y3.5078 
G01 X-32.8191 Y3.5284 
G01 X-32.8881 Y3.5682 
G01 X-32.9443 Y3.6244 
G01 X-37.2727 Y7.9528 
G01 X-41.3148 Y7.9528 
G01 X-41.3916 Y7.9734 
G01 X-41.4606 Y8.0132 
G01 X-45.9056 Y12.4582 
G01 X-45.9618 Y12.5144 
G01 X-46.0016 Y12.5834 
G01 X-46.0222 Y12.6602 
G01 X-46.0222 Y16.7936 
G01 X-46.0016 Y16.8704 
G01 X-45.9618 Y16.9394 
G01 X-45.2990 Y17.6022 
G01 X-45.2990 Y18.6554 
G01 X-45.2839 Y18.6918 
G01 X-45.2561 Y18.7196 
G01 X-45.2197 Y18.7347 
G01 X-43.6803 Y18.7347 
G01 X-43.6439 Y18.7196 
G01 X-43.6161 Y18.6918 
G01 X-43.6010 Y18.6554 
G01 X-43.6010 Y17.3922 
G01 X-43.6161 Y17.3558 
G01 X-43.6439 Y17.3280 
G01 X-43.6803 Y17.3129 
G01 X-44.7335 Y17.3129 
G01 X-45.4178 Y16.6286 
G01 X-45.4178 Y12.8252 
G01 X-41.1498 Y8.5572 
G01 X-37.1077 Y8.5572 
G01 X-37.0309 Y8.5366 
G01 X-36.9619 Y8.4968 
G01 X-36.9057 Y8.4406 
G01 X-32.5773 Y4.1122 
G01 X-29.9702 Y4.1122 
G01 X-29.5122 Y4.5702 
G01 X-29.5122 Y7.0248 
G01 X-29.4916 Y7.1016 
G01 X-29.4518 Y7.1706 
G01 X-29.3956 Y7.2268 
G01 X-27.4906 Y9.1318 
G01 X-27.4216 Y9.1716 
G01 X-27.3448 Y9.1922 
G01 X-24.2552 Y9.1922 
G01 X-23.7090 Y9.7384 
G01 X-23.7090 Y10.5478 
G01 X-23.6939 Y10.5842 
G01 X-23.6661 Y10.6120 
G01 X-23.6297 Y10.6271 
G01 X-22.0903 Y10.6271 
G01 X-22.0539 Y10.6120 
G01 X-22.0261 Y10.5842 
G01 X-22.0110 Y10.5478 
G01 X-22.0110 Y9.8272 
G01 X-18.8577 Y9.8272 
G01 X-14.9072 Y13.7777 
G01 X-14.9072 Y20.3598 
G01 X-14.8866 Y20.4366 
G01 X-14.8468 Y20.5056 
G01 X-14.7906 Y20.5618 
G01 X-14.2118 Y21.1406 
G01 X-14.1556 Y21.1968 
G01 X-14.0866 Y21.2366 
G01 X-14.0098 Y21.2572 
G01 X-13.8658 Y21.2572 
G01 X-13.8658 Y21.3049 
G01 X-13.8507 Y21.3413 
G01 X-13.8229 Y21.3691 
G01 X-13.7865 Y21.3842 
G01 X-11.7151 Y21.3842 
G01 X-11.6787 Y21.3691 
G01 X-11.6509 Y21.3413 
